; generated by Slic3r 1.2.7-dev on 2015-03-19 at 19:22:38

; external perimeters extrusion width = 0.35mm
; perimeters extrusion width = 0.52mm
; infill extrusion width = 0.52mm
; solid infill extrusion width = 0.52mm
; top infill extrusion width = 0.52mm

M190 S75 ; set bed temperature
M104 S200 ; set temperature
G28 ; home all axes
G1 Z5 F5000 ; lift nozzle

M109 S200 ; wait for temperature to be reached
G21 ; set units to millimeters
G90 ; use absolute coordinates
M83 ; use relative distances for extrusion
G1 E-2.00000 F2100.00000
G1 Z0.300 F7200.000
G1 Z0.350 F7200.000
G1 Z0.650 F7200.000
G1 X110.295 Y100.633 F7200.000
G1 Z0.350 F7200.000
G1 E2.00000 F2100.00000
G1 X110.559 Y100.353 E0.01927 F2100.000
G1 X110.855 Y100.108 E0.01928
G1 X111.320 Y99.833 E0.02705
G1 X111.842 Y99.645 E0.02780
G1 X112.390 Y99.558 E0.02779 F2100.000
G1 X112.945 Y99.576 E0.02780
G1 X113.471 Y99.693 E0.02704
G1 X113.829 Y99.835 E0.01928
G1 X114.166 Y100.020 E0.01928
G1 X114.593 Y100.351 E0.02705
G1 X114.960 Y100.767 E0.02779
G1 X115.242 Y101.245 E0.02779
G1 X115.430 Y101.767 E0.02780
G1 X115.517 Y102.315 E0.02780
G1 X115.499 Y102.870 E0.02779
G1 X115.378 Y103.411 E0.02779
G1 X115.158 Y103.920 E0.02780
G1 X114.855 Y104.367 E0.02704
G1 X114.591 Y104.647 E0.01927
G1 X114.295 Y104.892 E0.01928
G1 X113.830 Y105.167 E0.02705
G1 X113.308 Y105.355 E0.02780
G1 X112.760 Y105.442 E0.02779
G1 X112.206 Y105.425 E0.02779
G1 X111.679 Y105.307 E0.02704
G1 X111.321 Y105.165 E0.01928
G1 X110.984 Y104.980 E0.01928
G1 X110.557 Y104.649 E0.02705
G1 X110.190 Y104.233 E0.02778
G1 X109.908 Y103.755 E0.02779
G1 X109.720 Y103.233 E0.02780
G1 X109.633 Y102.685 E0.02780
G1 X109.651 Y102.130 E0.02779
G1 X109.772 Y101.589 E0.02779
G1 X109.992 Y101.080 E0.02780
G1 X110.266 Y100.677 E0.02441
G1 X110.566 Y100.881 F7200.000
G1 X110.807 Y100.618 E0.01789 F2100.000
G1 X111.064 Y100.405 E0.01671
G1 X111.475 Y100.162 E0.02390
G1 X111.932 Y99.997 E0.02436
G1 X112.413 Y99.921 E0.02436 F2100.000
G1 X112.899 Y99.937 E0.02437
G1 X113.364 Y100.041 E0.02389
G1 X113.674 Y100.163 E0.01671
G1 X113.967 Y100.324 E0.01671
G1 X114.344 Y100.617 E0.02390
G1 X114.665 Y100.981 E0.02436
G1 X114.913 Y101.400 E0.02436
G1 X115.078 Y101.857 E0.02436
G1 X115.154 Y102.338 E0.02437
G1 X115.138 Y102.824 E0.02436
G1 X115.032 Y103.298 E0.02436
G1 X114.839 Y103.745 E0.02436
G1 X114.571 Y104.139 E0.02390
G1 X114.343 Y104.382 E0.01670
G1 X114.086 Y104.595 E0.01670
G1 X113.675 Y104.838 E0.02390
G1 X113.218 Y105.003 E0.02436
G1 X112.737 Y105.079 E0.02436
G1 X112.251 Y105.063 E0.02436
G1 X111.786 Y104.959 E0.02390
G1 X111.476 Y104.837 E0.01671
G1 X111.183 Y104.676 E0.01671
G1 X110.806 Y104.383 E0.02390
G1 X110.485 Y104.019 E0.02436
G1 X110.237 Y103.600 E0.02436
G1 X110.072 Y103.143 E0.02436
G1 X109.996 Y102.662 E0.02436
G1 X110.012 Y102.176 E0.02436
G1 X110.118 Y101.702 E0.02436
G1 X110.311 Y101.255 E0.02436
G1 X110.536 Y100.924 E0.02007
G1 X110.836 Y101.128 F7200.000
G1 X111.056 Y100.882 E0.01651 F2100.000
G1 X111.273 Y100.702 E0.01413
G1 X111.630 Y100.492 E0.02076
G1 X112.023 Y100.350 E0.02093
G1 X112.436 Y100.285 E0.02093 F2100.000
G1 X112.853 Y100.298 E0.02093
G1 X113.257 Y100.388 E0.02075
G1 X113.520 Y100.492 E0.01414
G1 X113.767 Y100.628 E0.01414
G1 X114.095 Y100.882 E0.02075
G1 X114.371 Y101.195 E0.02093
G1 X114.584 Y101.555 E0.02093
G1 X114.725 Y101.948 E0.02093
G1 X114.790 Y102.361 E0.02093
G1 X114.777 Y102.778 E0.02093
G1 X114.686 Y103.186 E0.02093
G1 X114.520 Y103.569 E0.02093
G1 X114.287 Y103.912 E0.02076
G1 X114.094 Y104.118 E0.01413
G1 X113.877 Y104.298 E0.01413
G1 X113.520 Y104.508 E0.02076
G1 X113.127 Y104.650 E0.02093
G1 X112.714 Y104.715 E0.02093
G1 X112.297 Y104.702 E0.02093
G1 X111.892 Y104.612 E0.02075
G1 X111.630 Y104.508 E0.01414
G1 X111.383 Y104.372 E0.01414
G1 X111.055 Y104.118 E0.02076
G1 X110.779 Y103.805 E0.02093
G1 X110.566 Y103.445 E0.02093
G1 X110.425 Y103.052 E0.02093
G1 X110.360 Y102.639 E0.02093
G1 X110.373 Y102.222 E0.02093
G1 X110.464 Y101.814 E0.02093
G1 X110.630 Y101.431 E0.02093
G1 X110.806 Y101.171 E0.01572
G1 X110.719 Y100.819 F7200.000
G1 E-2.00000 F2100.00000
G1 Z0.650 F7200.000
G1 X105.626 Y93.456 F7200.000
G1 Z0.350 F7200.000
G1 E2.00000 F2100.00000
G1 X106.002 Y91.772 E0.08642 F2100.000
G1 X106.779 Y89.081 E0.14032
G1 X107.703 Y86.516 E0.13661
G1 X108.786 Y84.012 E0.13665
G1 X110.025 Y81.582 E0.13665
G1 X111.413 Y79.234 E0.13665
G1 X112.946 Y76.978 E0.13665
G1 X114.618 Y74.823 E0.13661
G1 X116.473 Y72.725 E0.14031
G1 X118.351 Y70.847 E0.13302
G1 X120.397 Y69.043 E0.13665
G1 X122.553 Y67.371 E0.13665
G1 X124.809 Y65.838 E0.13665
G1 X127.157 Y64.450 E0.13665
G1 X129.587 Y63.211 E0.13665
G1 X132.091 Y62.128 E0.13665
G1 X134.657 Y61.204 E0.13665
G1 X137.277 Y60.443 E0.13665
G1 X139.939 Y59.848 E0.13665
G1 X142.633 Y59.421 E0.13665
G1 X145.349 Y59.164 E0.13665
G1 X147.131 Y59.108 E0.08936
G1 X147.131 Y64.218 E0.25598
G1 X146.990 Y64.259 E0.00739 F2100.000
G1 X146.509 Y64.504 E0.02705
G1 X146.197 Y64.731 E0.01928
G1 X145.917 Y64.994 E0.01927
G1 X145.586 Y65.420 E0.02705
G1 X145.334 Y65.915 E0.02780
G1 X145.179 Y66.448 E0.02779
G1 X145.127 Y67.000 E0.02780
G1 X145.179 Y67.552 E0.02780
G1 X145.334 Y68.085 E0.02779
G1 X145.586 Y68.580 E0.02780
G1 X145.917 Y69.006 E0.02705
G1 X146.197 Y69.269 E0.01927
G1 X146.509 Y69.496 E0.01928
G1 X146.990 Y69.741 E0.02705
G1 X147.131 Y69.782 E0.00739
G1 X147.131 Y135.212 E3.27777
G1 X146.807 Y135.340 E0.01747
G1 X146.342 Y135.615 E0.02705
G1 X145.926 Y135.982 E0.02779
G1 X145.586 Y136.421 E0.02780
G1 X145.334 Y136.915 E0.02779
G1 X145.179 Y137.448 E0.02779
G1 X145.127 Y138.000 E0.02780
G1 X145.179 Y138.552 E0.02780
G1 X145.334 Y139.085 E0.02779
G1 X145.586 Y139.579 E0.02780
G1 X145.926 Y140.018 E0.02780
G1 X146.342 Y140.385 E0.02779
G1 X146.807 Y140.660 E0.02705
G1 X147.131 Y140.788 E0.01747
G1 X147.131 Y145.892 E0.25568
G1 X145.349 Y145.836 E0.08936
G1 X142.633 Y145.579 E0.13665
G1 X139.939 Y145.152 E0.13665
G1 X137.277 Y144.557 E0.13665
G1 X134.727 Y143.816 E0.13302
G1 X132.090 Y142.872 E0.14031
G1 X129.587 Y141.789 E0.13661
G1 X127.157 Y140.550 E0.13665
G1 X124.809 Y139.162 E0.13665
G1 X122.553 Y137.629 E0.13665
G1 X120.397 Y135.957 E0.13665
G1 X118.351 Y134.153 E0.13665
G1 X116.422 Y132.224 E0.13665
G1 X114.618 Y130.178 E0.13665
G1 X112.946 Y128.022 E0.13665
G1 X111.413 Y125.766 E0.13665
G1 X110.025 Y123.418 E0.13665
G1 X108.786 Y120.988 E0.13665
G1 X107.703 Y118.484 E0.13665
G1 X106.803 Y115.986 E0.13302
G1 X106.018 Y113.298 E0.14032
G1 X105.423 Y110.636 E0.13661
G1 X104.996 Y107.942 E0.13665
G1 X104.739 Y105.226 E0.13665
G1 X104.654 Y102.500 E0.13665
G1 X104.739 Y99.774 E0.13665
G1 X104.996 Y97.058 E0.13665
G1 X105.423 Y94.364 E0.13665
G1 X105.614 Y93.507 E0.04396
G1 X105.260 Y93.428 F7200.000
G1 X105.651 Y91.682 E0.08961 F2100.000
G1 X106.434 Y88.970 E0.14146
G1 X107.366 Y86.382 E0.13777
G1 X108.458 Y83.858 E0.13779
G1 X109.707 Y81.407 E0.13779
G1 X111.107 Y79.039 E0.13779
G1 X112.653 Y76.764 E0.13780
G1 X114.339 Y74.591 E0.13777
G1 X116.209 Y72.476 E0.14145
G1 X118.103 Y70.583 E0.13415
G1 X120.166 Y68.764 E0.13779
G1 X122.339 Y67.078 E0.13779
G1 X124.614 Y65.532 E0.13780
G1 X126.982 Y64.132 E0.13779
G1 X129.433 Y62.883 E0.13779
G1 X131.957 Y61.791 E0.13779
G1 X134.545 Y60.859 E0.13779
G1 X137.186 Y60.092 E0.13780
G1 X139.871 Y59.492 E0.13779
G1 X142.587 Y59.061 E0.13779
G1 X145.326 Y58.802 E0.13779
G1 X147.494 Y58.734 E0.10866
G1 X147.494 Y64.490 E0.28835
G1 X147.124 Y64.598 E0.01930 F2100.000
G1 X146.699 Y64.814 E0.02390
G1 X146.429 Y65.010 E0.01671
G1 X146.186 Y65.239 E0.01670
G1 X145.893 Y65.616 E0.02390
G1 X145.673 Y66.049 E0.02437
G1 X145.537 Y66.516 E0.02436
G1 X145.491 Y67.000 E0.02436
G1 X145.537 Y67.484 E0.02436
G1 X145.673 Y67.951 E0.02436
G1 X145.893 Y68.384 E0.02437
G1 X146.186 Y68.761 E0.02390
G1 X146.429 Y68.990 E0.01670
G1 X146.699 Y69.186 E0.01671
G1 X147.124 Y69.402 E0.02391
G1 X147.494 Y69.510 E0.01930
G1 X147.494 Y135.488 E3.30525
G1 X147.277 Y135.544 E0.01121
G1 X146.967 Y135.667 E0.01670
G1 X146.556 Y135.910 E0.02391
G1 X146.192 Y136.231 E0.02436
G1 X145.893 Y136.616 E0.02436
G1 X145.673 Y137.049 E0.02436
G1 X145.537 Y137.516 E0.02436
G1 X145.491 Y138.000 E0.02436
G1 X145.537 Y138.484 E0.02436
G1 X145.673 Y138.951 E0.02436
G1 X145.893 Y139.384 E0.02436
G1 X146.192 Y139.769 E0.02436
G1 X146.556 Y140.090 E0.02436
G1 X146.967 Y140.333 E0.02391
G1 X147.277 Y140.456 E0.01670
G1 X147.494 Y140.512 E0.01121
G1 X147.494 Y146.266 E0.28826
G1 X145.326 Y146.198 E0.10866
G1 X142.587 Y145.939 E0.13779
G1 X139.871 Y145.508 E0.13779
G1 X137.186 Y144.908 E0.13779
G1 X134.615 Y144.161 E0.13415
G1 X131.957 Y143.209 E0.14145
G1 X129.433 Y142.117 E0.13777
G1 X126.982 Y140.868 E0.13779
G1 X124.614 Y139.468 E0.13779
G1 X122.339 Y137.922 E0.13780
G1 X120.166 Y136.236 E0.13779
G1 X118.103 Y134.417 E0.13779
G1 X116.158 Y132.472 E0.13779
G1 X114.339 Y130.409 E0.13779
G1 X112.653 Y128.236 E0.13779
G1 X111.107 Y125.961 E0.13780
G1 X109.707 Y123.593 E0.13779
G1 X108.458 Y121.142 E0.13779
G1 X107.366 Y118.618 E0.13779
G1 X106.459 Y116.099 E0.13414
G1 X105.666 Y113.388 E0.14146
G1 X105.067 Y110.704 E0.13777
G1 X104.636 Y107.988 E0.13779
G1 X104.377 Y105.249 E0.13779
G1 X104.291 Y102.500 E0.13779
G1 X104.377 Y99.751 E0.13779
G1 X104.636 Y97.012 E0.13779
G1 X105.067 Y94.296 E0.13779
G1 X105.249 Y93.479 E0.04190
G1 X104.895 Y93.400 F7200.000
G1 X105.299 Y91.593 E0.09280 F2100.000
G1 X106.089 Y88.858 E0.14260
G1 X107.029 Y86.249 E0.13892
G1 X108.130 Y83.703 E0.13893
G1 X109.389 Y81.232 E0.13893
G1 X110.801 Y78.845 E0.13893
G1 X112.360 Y76.551 E0.13894
G1 X114.059 Y74.360 E0.13892
G1 X115.945 Y72.228 E0.14260
G1 X117.855 Y70.319 E0.13527
G1 X119.935 Y68.485 E0.13893
G1 X122.126 Y66.785 E0.13893
G1 X124.420 Y65.226 E0.13894
G1 X126.807 Y63.814 E0.13893
G1 X129.278 Y62.555 E0.13893
G1 X131.824 Y61.454 E0.13893
G1 X134.433 Y60.514 E0.13893
G1 X137.096 Y59.740 E0.13894
G1 X139.803 Y59.135 E0.13893
G1 X142.542 Y58.702 E0.13893
G1 X145.303 Y58.441 E0.13893
G1 X147.856 Y58.360 E0.12797
G1 X147.856 Y64.801 E0.32265
G1 X147.659 Y64.820 E0.00992 F2100.000
G1 X147.258 Y64.936 E0.02093
G1 X146.889 Y65.124 E0.02076
G1 X146.660 Y65.290 E0.01414
G1 X146.455 Y65.483 E0.01413
G1 X146.201 Y65.811 E0.02076
G1 X146.011 Y66.183 E0.02093
G1 X145.895 Y66.584 E0.02093
G1 X145.855 Y67.000 E0.02093
G1 X145.895 Y67.416 E0.02093
G1 X146.011 Y67.817 E0.02093
G1 X146.201 Y68.189 E0.02093
G1 X146.455 Y68.517 E0.02075
G1 X146.660 Y68.710 E0.01413
G1 X146.889 Y68.876 E0.01414
G1 X147.258 Y69.064 E0.02076
G1 X147.659 Y69.180 E0.02093
G1 X147.856 Y69.199 E0.00992
G1 X147.856 Y135.801 E3.33647
G1 X147.663 Y135.819 E0.00975
G1 X147.389 Y135.889 E0.01414
G1 X147.127 Y135.993 E0.01413
G1 X146.770 Y136.204 E0.02076
G1 X146.457 Y136.481 E0.02093
G1 X146.201 Y136.811 E0.02093
G1 X146.011 Y137.183 E0.02093
G1 X145.895 Y137.584 E0.02093
G1 X145.855 Y138.000 E0.02093
G1 X145.895 Y138.416 E0.02093
G1 X146.011 Y138.817 E0.02093
G1 X146.201 Y139.189 E0.02093
G1 X146.457 Y139.520 E0.02093
G1 X146.770 Y139.796 E0.02093
G1 X147.127 Y140.007 E0.02076
G1 X147.389 Y140.111 E0.01413
G1 X147.663 Y140.181 E0.01414
G1 X147.856 Y140.199 E0.00975
G1 X147.856 Y146.640 E0.32265
G1 X145.303 Y146.559 E0.12797
G1 X142.542 Y146.298 E0.13893
G1 X139.803 Y145.865 E0.13893
G1 X137.096 Y145.260 E0.13893
G1 X134.503 Y144.506 E0.13527
G1 X131.823 Y143.546 E0.14260
G1 X129.278 Y142.445 E0.13892
G1 X126.807 Y141.186 E0.13893
G1 X124.420 Y139.774 E0.13893
G1 X122.126 Y138.215 E0.13894
G1 X119.935 Y136.515 E0.13893
G1 X117.855 Y134.681 E0.13893
G1 X115.894 Y132.720 E0.13893
G1 X114.060 Y130.640 E0.13893
G1 X112.360 Y128.449 E0.13893
G1 X110.801 Y126.155 E0.13894
G1 X109.389 Y123.768 E0.13893
G1 X108.130 Y121.297 E0.13893
G1 X107.029 Y118.751 E0.13893
G1 X106.114 Y116.211 E0.13527
G1 X105.315 Y113.479 E0.14260
G1 X104.710 Y110.772 E0.13892
G1 X104.277 Y108.033 E0.13893
G1 X104.016 Y105.272 E0.13893
G1 X103.928 Y102.500 E0.13893
G1 X104.016 Y99.728 E0.13893
G1 X104.277 Y96.967 E0.13893
G1 X104.710 Y94.228 E0.13893
G1 X104.884 Y93.452 E0.03984
G1 X105.229 Y93.296 F7200.000
G1 E-2.00000 F2100.00000
G1 Z0.650 F7200.000
G1 X106.194 Y91.763 F7200.000
G1 Z0.350 F7200.000
G1 E2.00000 F2100.00000
G1 X114.174 Y99.743 E0.56703 F2100.000
G1 X113.361 Y99.445 F7200.000
G1 X106.100 Y92.183 E0.51599 F2100.000
G1 X106.006 Y92.603 E0.02163
G1 X112.770 Y99.368 E0.48065
G1 X112.274 Y99.385 E0.02495
G1 X105.912 Y93.023 E0.45206
G1 X105.818 Y93.443 E0.02163
G1 X111.833 Y99.459 E0.42740
G1 X111.455 Y99.595 E0.02018
G1 X105.724 Y93.864 E0.40722
G1 X105.630 Y94.284 E0.02163
G1 X111.106 Y99.760 E0.38912
G1 X110.783 Y99.951 E0.01885
G1 X105.557 Y94.724 E0.37138
G1 X105.486 Y95.168 E0.02257
G1 X110.501 Y100.182 E0.35629
G1 X110.245 Y100.441 E0.01826
G1 X105.416 Y95.612 E0.34315
G1 X105.346 Y96.055 E0.02257
G1 X110.023 Y100.732 E0.33231
G1 X109.817 Y101.041 E0.01863
G1 X105.276 Y96.499 E0.32272
G1 X105.205 Y96.943 E0.02257
G1 X109.662 Y101.400 E0.31668
G1 X109.537 Y101.789 E0.02054
G1 X105.157 Y97.408 E0.31127
G1 X105.112 Y97.878 E0.02370
G1 X109.450 Y102.216 E0.30824
G1 X109.435 Y102.714 E0.02505
G1 X105.068 Y98.348 E0.31027
G1 X105.024 Y98.817 E0.02370
G1 X109.517 Y103.310 E0.31926
G1 X109.864 Y104.172 F7200.000
G1 X104.979 Y99.287 E0.34711 F2100.000
G1 X104.937 Y99.759 E0.02382
G1 X146.932 Y141.753 E2.98393
G1 X146.932 Y141.239 E0.02583
G1 X146.403 Y140.711 E0.03755
G1 X145.356 Y139.664 F7200.000
G1 X110.916 Y105.224 E2.44718 F2100.000
G1 X111.754 Y105.547 F7200.000
G1 X145.022 Y138.816 E2.36393 F2100.000
G1 X144.940 Y138.219 E0.03027
G1 X112.352 Y105.632 E2.31555
G1 X112.853 Y105.618 E0.02517
G1 X144.959 Y137.725 E2.28136
G1 X145.037 Y137.288 E0.02228
G1 X113.296 Y105.548 E2.25533
G1 X113.675 Y105.413 E0.02020
G1 X145.153 Y136.890 E2.23666
G1 X145.326 Y136.549 E0.01920
G1 X114.027 Y105.250 E2.22399
G1 X114.350 Y105.059 E0.01885
G1 X145.520 Y136.230 E2.21486
G1 X145.745 Y135.940 E0.01841
G1 X114.634 Y104.830 E2.21057
G1 X114.891 Y104.573 E0.01826
G1 X146.006 Y135.688 E2.21087
G1 X146.283 Y135.451 E0.01832
G1 X115.116 Y104.284 E2.21460
G1 X115.324 Y103.978 E0.01859
G1 X146.606 Y135.260 E2.22277
G1 X146.932 Y135.071 E0.01889
G1 X115.480 Y103.619 E2.23484
G1 X115.608 Y103.233 E0.02043
G1 X146.932 Y134.557 E2.22574
G1 X146.932 Y134.043 E0.02583
G1 X115.699 Y102.810 E2.21926
G1 X115.715 Y102.312 E0.02505
G1 X146.932 Y133.529 E2.21814
G1 X146.932 Y133.015 E0.02583
G1 X115.639 Y101.722 E2.22355
G1 X115.325 Y100.895 F7200.000
G1 X146.932 Y132.501 E2.24582 F2100.000
G1 X146.932 Y131.987 E0.02583
G1 X106.309 Y91.364 E2.88649
G1 X106.424 Y90.965 E0.02086
G1 X146.932 Y131.473 E2.87830
G1 X146.932 Y130.959 E0.02583
G1 X106.539 Y90.567 E2.87012
G1 X106.654 Y90.168 E0.02086
G1 X146.932 Y130.445 E2.86193
G1 X146.932 Y129.931 E0.02583
G1 X106.769 Y89.769 E2.85375
G1 X106.885 Y89.370 E0.02086
G1 X146.932 Y129.417 E2.84557
G1 X146.932 Y128.903 E0.02583
G1 X107.006 Y88.977 E2.83694
G1 X107.142 Y88.599 E0.02018
G1 X146.932 Y128.389 E2.82727
G1 X146.932 Y127.875 E0.02583
G1 X107.278 Y88.222 E2.81760
G1 X107.414 Y87.844 E0.02018
G1 X146.932 Y127.361 E2.80793
G1 X146.932 Y126.847 E0.02583
G1 X107.550 Y87.466 E2.79827
G1 X107.686 Y87.088 E0.02018
G1 X146.932 Y126.333 E2.78860
G1 X146.932 Y125.819 E0.02583
G1 X107.822 Y86.710 E2.77893
G1 X107.969 Y86.342 E0.01987
G1 X146.932 Y125.305 E2.76851
G1 X146.932 Y124.791 E0.02583
G1 X108.124 Y85.984 E2.75747
G1 X108.280 Y85.625 E0.01964
G1 X146.932 Y124.277 E2.74644
G1 X146.932 Y123.763 E0.02583
G1 X108.435 Y85.266 E2.73541
G1 X108.590 Y84.907 E0.01964
G1 X146.932 Y123.249 E2.72438
G1 X146.932 Y122.735 E0.02583
G1 X108.745 Y84.549 E2.71335
G1 X108.901 Y84.190 E0.01964
G1 X146.932 Y122.221 E2.70232
G1 X146.932 Y121.707 E0.02583
G1 X109.067 Y83.842 E2.69048
G1 X109.241 Y83.502 E0.01920
G1 X146.932 Y121.193 E2.67816
G1 X146.932 Y120.679 E0.02583
G1 X109.414 Y83.161 E2.66583
G1 X109.588 Y82.821 E0.01920
G1 X146.932 Y120.165 E2.65350
G1 X146.932 Y119.651 E0.02583
G1 X109.761 Y82.480 E2.64117
G1 X109.935 Y82.140 E0.01920
G1 X146.932 Y119.137 E2.62884
G1 X146.932 Y118.623 E0.02583
G1 X110.108 Y81.799 E2.61651
