; generated by Slic3r 1.2.7-dev on 2015-04-12 at 12:43:23

; external perimeters extrusion width = 0.35mm
; perimeters extrusion width = 0.52mm
; infill extrusion width = 0.52mm
; solid infill extrusion width = 0.52mm
; top infill extrusion width = 0.52mm

M190 S75 ; set bed temperature
M104 S210 T1 ; set temperature
G28 ; home all axes
G1 Z5 F5000 ; lift nozzle

M109 S210 T1 ; wait for temperature to be reached
G21 ; set units to millimeters
G90 ; use absolute coordinates
M83 ; use relative distances for extrusion
T1
G1 E-2.00000 F2100.00000
G1 Z0.300 F7200.000
G1 Z0.350 F7200.000
G1 Z0.650 F7200.000
G1 X90.022 Y88.951 F7200.000
G1 Z0.350 F7200.000
G1 E2.00000 F2100.00000
G1 X90.905 Y87.949 E0.07041 F2100.000
G1 X91.849 Y87.005 E0.07042
G1 X92.851 Y86.122 E0.07041
G1 X93.906 Y85.303 E0.07042
G1 X95.010 Y84.553 E0.07042
G1 X96.157 Y83.874 E0.07027
G1 X97.349 Y83.267 E0.07056
G1 X98.575 Y82.736 E0.07042
G1 X99.831 Y82.284 E0.07042
G1 X101.114 Y81.911 E0.07042
G1 X102.417 Y81.620 E0.07042
G1 X103.736 Y81.411 E0.07042
G1 X105.065 Y81.285 E0.07042
G1 X106.397 Y81.244 E0.07025 F2100.000
G1 X107.735 Y81.285 E0.07058
G1 X109.064 Y81.411 E0.07042
G1 X110.383 Y81.620 E0.07042
G1 X111.686 Y81.911 E0.07042
G1 X112.966 Y82.283 E0.07026
G1 X114.225 Y82.736 E0.07056
G1 X115.451 Y83.267 E0.07042
G1 X116.640 Y83.873 E0.07042
G1 X117.790 Y84.553 E0.07042
G1 X118.894 Y85.303 E0.07042
G1 X119.949 Y86.122 E0.07042
G1 X120.951 Y87.005 E0.07041
G1 X121.895 Y87.949 E0.07042
G1 X122.778 Y88.951 E0.07041
G1 X123.597 Y90.006 E0.07042
G1 X124.347 Y91.110 E0.07042
G1 X125.027 Y92.260 E0.07042
G1 X125.633 Y93.449 E0.07042
G1 X126.163 Y94.672 E0.07027
G1 X126.616 Y95.931 E0.07056
G1 X126.989 Y97.214 E0.07042
G1 X127.280 Y98.517 E0.07042
G1 X127.489 Y99.836 E0.07042
G1 X127.615 Y101.165 E0.07042
G1 X127.656 Y102.500 E0.07042
G1 X127.614 Y103.838 E0.07057
G1 X127.489 Y105.164 E0.07027
G1 X127.280 Y106.483 E0.07042
G1 X126.989 Y107.786 E0.07042
G1 X126.616 Y109.069 E0.07042
G1 X126.163 Y110.328 E0.07056
G1 X125.633 Y111.551 E0.07027
G1 X125.027 Y112.740 E0.07042
G1 X124.347 Y113.890 E0.07042
G1 X123.597 Y114.994 E0.07042
G1 X122.778 Y116.049 E0.07042
G1 X121.895 Y117.051 E0.07041
G1 X120.951 Y117.995 E0.07042
G1 X119.949 Y118.878 E0.07041
G1 X118.894 Y119.697 E0.07042
G1 X117.790 Y120.447 E0.07042
G1 X116.640 Y121.127 E0.07042
G1 X115.451 Y121.733 E0.07042
G1 X114.225 Y122.264 E0.07042
G1 X112.966 Y122.717 E0.07056
G1 X111.686 Y123.089 E0.07026
G1 X110.383 Y123.380 E0.07042
G1 X109.064 Y123.589 E0.07042
G1 X107.735 Y123.715 E0.07042
G1 X106.400 Y123.756 E0.07042
G1 X105.062 Y123.714 E0.07057
G1 X103.736 Y123.589 E0.07027
G1 X102.417 Y123.380 E0.07042
G1 X101.114 Y123.089 E0.07042
G1 X99.831 Y122.716 E0.07042
G1 X98.572 Y122.263 E0.07056
G1 X97.349 Y121.733 E0.07027
G1 X96.160 Y121.127 E0.07042
G1 X95.010 Y120.447 E0.07042
G1 X93.906 Y119.697 E0.07042
G1 X92.851 Y118.878 E0.07042
G1 X91.849 Y117.995 E0.07041
G1 X90.905 Y117.051 E0.07042
G1 X90.022 Y116.049 E0.07041
G1 X89.203 Y114.994 E0.07042
G1 X88.453 Y113.890 E0.07042
G1 X87.773 Y112.740 E0.07042
G1 X87.167 Y111.551 E0.07042
G1 X86.636 Y110.325 E0.07042
G1 X86.183 Y109.066 E0.07056
G1 X85.811 Y107.786 E0.07026
G1 X85.520 Y106.483 E0.07042
G1 X85.311 Y105.164 E0.07042
G1 X85.185 Y103.835 E0.07042
G1 X85.144 Y102.500 E0.07042
G1 X85.185 Y101.165 E0.07042
G1 X85.311 Y99.836 E0.07042
G1 X85.520 Y98.517 E0.07042
G1 X85.811 Y97.214 E0.07042
G1 X86.183 Y95.934 E0.07026
G1 X86.636 Y94.675 E0.07056
G1 X87.167 Y93.449 E0.07042
G1 X87.773 Y92.260 E0.07042
G1 X88.453 Y91.110 E0.07042
G1 X89.203 Y90.006 E0.07042
G1 X89.989 Y88.992 E0.06765
G1 X90.276 Y89.214 F7200.000
G1 X91.169 Y88.197 E0.07138 F2100.000
G1 X92.097 Y87.269 E0.06922
G1 X93.082 Y86.401 E0.06921
G1 X94.119 Y85.596 E0.06922
G1 X95.204 Y84.859 E0.06921
G1 X96.332 Y84.192 E0.06907
G1 X97.504 Y83.595 E0.06936
G1 X98.708 Y83.073 E0.06922
G1 X99.943 Y82.629 E0.06922
G1 X101.204 Y82.263 E0.06921
G1 X102.485 Y81.976 E0.06922
G1 X103.781 Y81.771 E0.06922
G1 X105.088 Y81.647 E0.06922
G1 X106.397 Y81.606 E0.06905 F2100.000
G1 X107.712 Y81.647 E0.06938
G1 X109.019 Y81.771 E0.06922
G1 X110.315 Y81.976 E0.06922
G1 X111.596 Y82.263 E0.06922
G1 X112.854 Y82.628 E0.06906
G1 X114.092 Y83.073 E0.06936
G1 X115.296 Y83.595 E0.06922
G1 X116.466 Y84.190 E0.06922
G1 X117.596 Y84.859 E0.06922
G1 X118.681 Y85.596 E0.06921
G1 X119.718 Y86.401 E0.06922
G1 X120.703 Y87.269 E0.06921
G1 X121.631 Y88.197 E0.06922
G1 X122.499 Y89.182 E0.06921
G1 X123.304 Y90.219 E0.06922
G1 X124.041 Y91.304 E0.06921
G1 X124.710 Y92.434 E0.06922
G1 X125.305 Y93.604 E0.06922
G1 X125.826 Y94.806 E0.06907
G1 X126.271 Y96.043 E0.06936
G1 X126.637 Y97.304 E0.06922
G1 X126.924 Y98.585 E0.06922
G1 X127.129 Y99.881 E0.06922
G1 X127.253 Y101.188 E0.06922
G1 X127.294 Y102.500 E0.06922
G1 X127.252 Y103.815 E0.06936
G1 X127.129 Y105.119 E0.06907
G1 X126.924 Y106.415 E0.06922
G1 X126.637 Y107.696 E0.06922
G1 X126.271 Y108.957 E0.06922
G1 X125.826 Y110.194 E0.06936
G1 X125.305 Y111.396 E0.06907
G1 X124.710 Y112.566 E0.06922
G1 X124.041 Y113.696 E0.06922
G1 X123.304 Y114.781 E0.06921
G1 X122.499 Y115.818 E0.06922
G1 X121.631 Y116.803 E0.06921
G1 X120.703 Y117.731 E0.06922
G1 X119.718 Y118.599 E0.06921
G1 X118.681 Y119.404 E0.06922
G1 X117.596 Y120.141 E0.06921
G1 X116.466 Y120.810 E0.06922
G1 X115.296 Y121.405 E0.06922
G1 X114.092 Y121.927 E0.06922
G1 X112.854 Y122.372 E0.06936
G1 X111.596 Y122.737 E0.06906
G1 X110.315 Y123.024 E0.06922
G1 X109.019 Y123.229 E0.06922
G1 X107.712 Y123.353 E0.06922
G1 X106.400 Y123.394 E0.06922
G1 X105.085 Y123.352 E0.06936
G1 X103.781 Y123.229 E0.06907
G1 X102.485 Y123.024 E0.06922
G1 X101.204 Y122.737 E0.06922
G1 X99.943 Y122.371 E0.06922
G1 X98.706 Y121.926 E0.06936
G1 X97.504 Y121.405 E0.06907
G1 X96.334 Y120.810 E0.06922
G1 X95.204 Y120.141 E0.06922
G1 X94.119 Y119.404 E0.06921
G1 X93.082 Y118.599 E0.06922
G1 X92.097 Y117.731 E0.06921
G1 X91.169 Y116.803 E0.06922
G1 X90.301 Y115.818 E0.06921
G1 X89.496 Y114.781 E0.06922
G1 X88.759 Y113.696 E0.06921
G1 X88.090 Y112.566 E0.06922
G1 X87.495 Y111.396 E0.06922
G1 X86.973 Y110.192 E0.06922
G1 X86.528 Y108.954 E0.06936
G1 X86.163 Y107.696 E0.06906
G1 X85.876 Y106.415 E0.06922
G1 X85.671 Y105.119 E0.06922
G1 X85.547 Y103.812 E0.06922
G1 X85.506 Y102.500 E0.06922
G1 X85.547 Y101.188 E0.06922
G1 X85.671 Y99.881 E0.06922
G1 X85.876 Y98.585 E0.06922
G1 X86.163 Y97.304 E0.06922
G1 X86.528 Y96.046 E0.06907
G1 X86.973 Y94.808 E0.06936
G1 X87.495 Y93.604 E0.06922
G1 X88.090 Y92.434 E0.06922
G1 X88.759 Y91.304 E0.06922
G1 X89.496 Y90.219 E0.06921
G1 X90.244 Y89.256 E0.06428
G1 X90.530 Y89.478 F7200.000
G1 X91.433 Y88.445 E0.07234 F2100.000
G1 X92.345 Y87.533 E0.06801
G1 X93.313 Y86.680 E0.06801
G1 X94.332 Y85.890 E0.06802
G1 X95.399 Y85.165 E0.06801
G1 X96.507 Y84.510 E0.06787
G1 X97.658 Y83.923 E0.06816
G1 X98.842 Y83.410 E0.06802
G1 X100.055 Y82.974 E0.06801
G1 X101.294 Y82.614 E0.06801
G1 X102.553 Y82.332 E0.06802
G1 X103.827 Y82.131 E0.06801
G1 X105.111 Y82.009 E0.06801
G1 X106.397 Y81.969 E0.06785 F2100.000
G1 X107.689 Y82.009 E0.06818
G1 X108.973 Y82.131 E0.06802
G1 X110.247 Y82.332 E0.06801
G1 X111.506 Y82.614 E0.06802
G1 X112.742 Y82.973 E0.06787
G1 X113.958 Y83.410 E0.06816
G1 X115.142 Y83.923 E0.06802
G1 X116.291 Y84.508 E0.06801
G1 X117.401 Y85.165 E0.06802
G1 X118.468 Y85.890 E0.06801
G1 X119.487 Y86.680 E0.06802
G1 X120.455 Y87.533 E0.06801
G1 X121.367 Y88.445 E0.06801
G1 X122.220 Y89.413 E0.06801
G1 X123.010 Y90.432 E0.06802
G1 X123.735 Y91.499 E0.06801
G1 X124.392 Y92.609 E0.06802
G1 X124.977 Y93.758 E0.06801
G1 X125.488 Y94.939 E0.06787
G1 X125.926 Y96.155 E0.06816
G1 X126.286 Y97.394 E0.06802
G1 X126.568 Y98.653 E0.06802
G1 X126.769 Y99.927 E0.06801
G1 X126.891 Y101.211 E0.06801
G1 X126.931 Y102.500 E0.06802
G1 X126.891 Y103.792 E0.06816
G1 X126.769 Y105.073 E0.06787
G1 X126.568 Y106.347 E0.06801
G1 X126.286 Y107.606 E0.06802
G1 X125.926 Y108.845 E0.06802
G1 X125.488 Y110.061 E0.06816
G1 X124.977 Y111.242 E0.06787
G1 X124.392 Y112.391 E0.06801
G1 X123.735 Y113.501 E0.06802
G1 X123.010 Y114.568 E0.06801
G1 X122.220 Y115.587 E0.06802
G1 X121.367 Y116.555 E0.06801
G1 X120.455 Y117.467 E0.06801
G1 X119.487 Y118.320 E0.06801
G1 X118.468 Y119.110 E0.06802
G1 X117.401 Y119.835 E0.06801
G1 X116.291 Y120.492 E0.06802
G1 X115.142 Y121.077 E0.06801
G1 X113.958 Y121.590 E0.06802
G1 X112.742 Y122.027 E0.06816
G1 X111.506 Y122.386 E0.06787
G1 X110.247 Y122.668 E0.06802
G1 X108.973 Y122.869 E0.06801
G1 X107.689 Y122.991 E0.06801
G1 X106.400 Y123.031 E0.06802
G1 X105.108 Y122.991 E0.06816
G1 X103.827 Y122.869 E0.06787
G1 X102.553 Y122.668 E0.06801
G1 X101.294 Y122.386 E0.06802
G1 X100.055 Y122.026 E0.06802
G1 X98.839 Y121.588 E0.06816
G1 X97.658 Y121.077 E0.06787
G1 X96.509 Y120.492 E0.06801
G1 X95.399 Y119.835 E0.06802
G1 X94.332 Y119.110 E0.06801
G1 X93.313 Y118.320 E0.06802
G1 X92.345 Y117.467 E0.06801
G1 X91.433 Y116.555 E0.06801
G1 X90.580 Y115.587 E0.06801
G1 X89.790 Y114.568 E0.06802
G1 X89.065 Y113.501 E0.06801
G1 X88.408 Y112.391 E0.06802
G1 X87.823 Y111.242 E0.06801
G1 X87.310 Y110.058 E0.06802
G1 X86.873 Y108.842 E0.06816
G1 X86.514 Y107.606 E0.06787
G1 X86.232 Y106.347 E0.06802
G1 X86.031 Y105.073 E0.06801
G1 X85.909 Y103.789 E0.06801
G1 X85.869 Y102.500 E0.06801
G1 X85.909 Y101.211 E0.06801
G1 X86.031 Y99.927 E0.06801
G1 X86.232 Y98.653 E0.06801
G1 X86.514 Y97.394 E0.06802
G1 X86.873 Y96.158 E0.06787
G1 X87.310 Y94.942 E0.06816
G1 X87.823 Y93.758 E0.06802
G1 X88.408 Y92.609 E0.06801
G1 X89.065 Y91.499 E0.06802
G1 X89.790 Y90.432 E0.06801
G1 X90.498 Y89.519 E0.06091
G1 X90.411 Y89.149 F7200.000
G1 E-2.00000 F2100.00000
G1 Z0.650 F7200.000
G1 X127.043 Y97.200 F7200.000
G1 X129.328 Y105.454 F7200.000
G1 X128.952 Y113.112 F7200.000
G1 X128.553 Y114.021 F7200.000
G1 Z0.350 F7200.000
G1 E2.00000 F2100.00000
G1 X128.291 Y114.535 E0.03037 F2100.000
G1 X127.492 Y115.885 E0.08275
G1 X126.610 Y117.183 E0.08275
G1 X125.648 Y118.423 E0.08276
G1 X124.610 Y119.601 E0.08276
G1 X123.501 Y120.710 E0.08275
G1 X122.323 Y121.748 E0.08276
G1 X121.083 Y122.710 E0.08276
G1 X119.785 Y123.592 E0.08275
G1 X118.435 Y124.391 E0.08275
G1 X117.036 Y125.103 E0.08276
G1 X115.596 Y125.727 E0.08276
G1 X114.120 Y126.258 E0.08275
G1 X112.613 Y126.696 E0.08276
G1 X111.081 Y127.039 E0.08276
G1 X109.531 Y127.284 E0.08275
G1 X107.969 Y127.432 E0.08276
G1 X106.400 Y127.481 E0.08276
G1 X104.831 Y127.432 E0.08276
G1 X103.269 Y127.284 E0.08276
G1 X101.719 Y127.039 E0.08275
G1 X100.187 Y126.696 E0.08276
G1 X98.680 Y126.258 E0.08276
G1 X97.204 Y125.727 E0.08275
G1 X95.764 Y125.103 E0.08276
G1 X94.365 Y124.391 E0.08276
G1 X93.015 Y123.592 E0.08275
G1 X91.717 Y122.710 E0.08275
G1 X90.477 Y121.748 E0.08276
G1 X89.299 Y120.710 E0.08276
G1 X88.190 Y119.601 E0.08275
G1 X87.152 Y118.423 E0.08276
G1 X86.190 Y117.183 E0.08276
G1 X85.308 Y115.885 E0.08275
G1 X84.509 Y114.535 E0.08275
G1 X83.797 Y113.136 E0.08276
G1 X83.173 Y111.696 E0.08276
G1 X82.642 Y110.220 E0.08275
G1 X82.204 Y108.713 E0.08276
G1 X81.861 Y107.181 E0.08276
G1 X81.616 Y105.631 E0.08275
G1 X81.468 Y104.069 E0.08276
G1 X81.419 Y102.500 E0.08276
G1 X81.468 Y100.931 E0.08276
G1 X81.616 Y99.369 E0.08276
G1 X81.861 Y97.819 E0.08275
G1 X82.204 Y96.287 E0.08276
G1 X82.642 Y94.780 E0.08276
G1 X83.173 Y93.304 E0.08275
G1 X83.797 Y91.864 E0.08276
G1 X84.509 Y90.465 E0.08276
G1 X85.308 Y89.115 E0.08275
G1 X86.190 Y87.817 E0.08275
G1 X87.152 Y86.577 E0.08276
G1 X88.190 Y85.399 E0.08276
G1 X89.299 Y84.290 E0.08275
G1 X90.477 Y83.252 E0.08276
G1 X91.717 Y82.290 E0.08276
G1 X93.015 Y81.408 E0.08275
G1 X94.365 Y80.609 E0.08275
G1 X95.764 Y79.897 E0.08276
G1 X97.204 Y79.273 E0.08276
G1 X98.680 Y78.742 E0.08275
G1 X100.187 Y78.304 E0.08276
G1 X101.719 Y77.961 E0.08276
G1 X103.269 Y77.716 E0.08275
G1 X104.831 Y77.568 E0.08276
G1 X106.400 Y77.519 E0.08276
G1 X106.747 Y77.530 E0.01828
G1 X107.969 Y77.568 E0.06447 F2100.000
G1 X109.531 Y77.716 E0.08276
G1 X111.081 Y77.961 E0.08275
G1 X112.613 Y78.304 E0.08276
G1 X114.120 Y78.742 E0.08276
G1 X115.596 Y79.273 E0.08275
G1 X117.036 Y79.897 E0.08276
G1 X118.435 Y80.609 E0.08276
G1 X119.785 Y81.408 E0.08275
G1 X121.083 Y82.290 E0.08275
G1 X122.323 Y83.252 E0.08276
G1 X123.501 Y84.290 E0.08276
G1 X124.610 Y85.399 E0.08275
G1 X125.648 Y86.577 E0.08276
G1 X126.610 Y87.817 E0.08276
G1 X127.492 Y89.115 E0.08275
G1 X128.291 Y90.465 E0.08275
G1 X129.003 Y91.864 E0.08276
G1 X129.627 Y93.304 E0.08276
G1 X130.158 Y94.780 E0.08275
G1 X130.596 Y96.287 E0.08276
G1 X130.939 Y97.819 E0.08276
G1 X131.184 Y99.369 E0.08275
G1 X131.332 Y100.931 E0.08276
G1 X131.381 Y102.500 E0.08276
G1 X131.332 Y104.069 E0.08276
G1 X131.184 Y105.631 E0.08276
G1 X130.939 Y107.181 E0.08275
G1 X130.596 Y108.713 E0.08276
G1 X130.158 Y110.220 E0.08276
G1 X129.627 Y111.696 E0.08275
G1 X129.003 Y113.136 E0.08276
G1 X128.576 Y113.975 E0.04961
G1 X128.899 Y114.139 F7200.000
G1 X128.609 Y114.709 E0.03374 F2100.000
G1 X127.798 Y116.080 E0.08396
G1 X126.903 Y117.397 E0.08396
G1 X125.928 Y118.655 E0.08396
G1 X124.875 Y119.849 E0.08396
G1 X123.749 Y120.975 E0.08395
G1 X122.555 Y122.028 E0.08396
G1 X121.297 Y123.003 E0.08396
G1 X119.980 Y123.898 E0.08396
G1 X118.609 Y124.709 E0.08396
G1 X117.191 Y125.432 E0.08396
G1 X115.730 Y126.064 E0.08396
G1 X114.232 Y126.603 E0.08395
G1 X112.703 Y127.047 E0.08396
G1 X111.149 Y127.395 E0.08396
G1 X109.576 Y127.644 E0.08396
G1 X107.991 Y127.794 E0.08396
G1 X106.400 Y127.844 E0.08396
G1 X104.809 Y127.794 E0.08396
G1 X103.224 Y127.644 E0.08396
G1 X101.651 Y127.395 E0.08396
G1 X100.097 Y127.047 E0.08396
G1 X98.568 Y126.603 E0.08396
G1 X97.070 Y126.064 E0.08395
G1 X95.609 Y125.432 E0.08396
G1 X94.191 Y124.709 E0.08396
G1 X92.820 Y123.898 E0.08395
G1 X91.503 Y123.003 E0.08396
G1 X90.245 Y122.028 E0.08396
G1 X89.051 Y120.975 E0.08396
G1 X87.925 Y119.849 E0.08395
G1 X86.872 Y118.655 E0.08396
G1 X85.897 Y117.397 E0.08396
G1 X85.002 Y116.080 E0.08396
G1 X84.191 Y114.709 E0.08396
G1 X83.468 Y113.291 E0.08396
G1 X82.836 Y111.830 E0.08396
G1 X82.297 Y110.332 E0.08395
G1 X81.853 Y108.803 E0.08396
G1 X81.505 Y107.249 E0.08396
G1 X81.256 Y105.676 E0.08396
G1 X81.106 Y104.091 E0.08396
G1 X81.056 Y102.500 E0.08396
G1 X81.106 Y100.909 E0.08396
G1 X81.256 Y99.324 E0.08396
G1 X81.505 Y97.751 E0.08396
G1 X81.853 Y96.197 E0.08396
G1 X82.297 Y94.668 E0.08396
G1 X82.836 Y93.170 E0.08395
G1 X83.468 Y91.709 E0.08396
G1 X84.191 Y90.291 E0.08396
G1 X85.002 Y88.920 E0.08395
G1 X85.897 Y87.603 E0.08396
G1 X86.872 Y86.345 E0.08396
G1 X87.925 Y85.151 E0.08396
G1 X89.051 Y84.025 E0.08395
G1 X90.245 Y82.972 E0.08396
G1 X91.503 Y81.997 E0.08396
G1 X92.820 Y81.102 E0.08396
G1 X94.191 Y80.291 E0.08395
G1 X95.609 Y79.568 E0.08396
G1 X97.070 Y78.936 E0.08396
G1 X98.568 Y78.397 E0.08395
G1 X100.097 Y77.953 E0.08396
G1 X101.651 Y77.605 E0.08396
G1 X103.224 Y77.356 E0.08396
G1 X104.809 Y77.206 E0.08396
G1 X106.400 Y77.156 E0.08396
G1 X106.758 Y77.168 E0.01888
G1 X107.991 Y77.206 E0.06507 F2100.000
G1 X109.576 Y77.356 E0.08396
G1 X111.149 Y77.605 E0.08396
G1 X112.703 Y77.953 E0.08396
G1 X114.232 Y78.397 E0.08396
G1 X115.730 Y78.936 E0.08395
G1 X117.191 Y79.568 E0.08396
G1 X118.609 Y80.291 E0.08396
G1 X119.980 Y81.102 E0.08396
G1 X121.297 Y81.997 E0.08396
G1 X122.555 Y82.972 E0.08396
G1 X123.749 Y84.025 E0.08396
G1 X124.875 Y85.151 E0.08395
G1 X125.928 Y86.345 E0.08396
G1 X126.903 Y87.603 E0.08396
G1 X127.798 Y88.920 E0.08396
G1 X128.609 Y90.291 E0.08395
G1 X129.332 Y91.709 E0.08396
G1 X129.964 Y93.170 E0.08396
G1 X130.503 Y94.668 E0.08395
G1 X130.947 Y96.197 E0.08396
G1 X131.295 Y97.751 E0.08396
G1 X131.544 Y99.324 E0.08396
G1 X131.694 Y100.909 E0.08396
G1 X131.744 Y102.500 E0.08396
G1 X131.694 Y104.091 E0.08396
G1 X131.544 Y105.676 E0.08396
G1 X131.295 Y107.249 E0.08396
G1 X130.947 Y108.803 E0.08396
G1 X130.503 Y110.332 E0.08396
G1 X129.964 Y111.830 E0.08395
G1 X129.332 Y113.291 E0.08396
G1 X128.923 Y114.092 E0.04744
G1 X129.246 Y114.257 F7200.000
G1 X128.927 Y114.884 E0.03711 F2100.000
G1 X128.104 Y116.274 E0.08516
G1 X127.197 Y117.610 E0.08516
G1 X126.207 Y118.886 E0.08516
G1 X125.139 Y120.097 E0.08516
