; generated by Slic3r 1.2.7-dev on 2015-03-19 at 20:36:43

; external perimeters extrusion width = 0.35mm
; perimeters extrusion width = 0.52mm
; infill extrusion width = 0.52mm
; solid infill extrusion width = 0.52mm
; top infill extrusion width = 0.52mm

M190 S75 ; set bed temperature
M104 S200 ; set temperature
G28 ; home all axes
G1 Z5 F5000 ; lift nozzle

M109 S200 ; wait for temperature to be reached
G21 ; set units to millimeters
G90 ; use absolute coordinates
M83 ; use relative distances for extrusion
G1 E-2.00000 F2100.00000
G1 Z0.300 F7200.000
G1 Z0.350 F7200.000
G1 Z0.650 F7200.000
G1 X120.297 Y135.931 F7200.000
G1 Z0.350 F7200.000
G1 E2.00000 F2100.00000
G1 X120.723 Y135.555 E0.02850 F2100.000
G1 X121.213 Y135.265 E0.02850
G1 X121.750 Y135.072 E0.02857
G1 X122.307 Y134.985 E0.02824 F2100.000
G1 X122.690 Y134.986 E0.01922
G1 X123.081 Y135.035 E0.01972
G1 X123.613 Y135.189 E0.02775
G1 X124.120 Y135.448 E0.02851
G1 X124.569 Y135.797 E0.02850
G1 X124.945 Y136.223 E0.02850
G1 X125.235 Y136.713 E0.02851
G1 X125.428 Y137.248 E0.02850
G1 X125.517 Y137.810 E0.02850
G1 X125.499 Y138.379 E0.02850
G1 X125.375 Y138.934 E0.02850
G1 X125.149 Y139.456 E0.02850
G1 X124.837 Y139.914 E0.02776
G1 X124.568 Y140.202 E0.01975
G1 X124.264 Y140.453 E0.01974
G1 X123.787 Y140.735 E0.02775
G1 X123.252 Y140.928 E0.02850
G1 X122.690 Y141.017 E0.02850
G1 X122.121 Y140.999 E0.02850
G1 X121.566 Y140.875 E0.02850
G1 X121.058 Y140.655 E0.02775
G1 X120.725 Y140.444 E0.01972
G1 X120.429 Y140.200 E0.01921
G1 X120.055 Y139.778 E0.02824
G1 X119.765 Y139.287 E0.02858
G1 X119.572 Y138.752 E0.02850
G1 X119.483 Y138.188 E0.02857
G1 X119.502 Y137.625 E0.02825
G1 X119.575 Y137.248 E0.01921
G1 X119.696 Y136.874 E0.01972
G1 X119.948 Y136.380 E0.02775
G1 X120.264 Y135.972 E0.02587
G1 X120.551 Y136.194 F7200.000
G1 X120.937 Y135.849 E0.02597 F2100.000
G1 X121.368 Y135.594 E0.02507
G1 X121.840 Y135.425 E0.02511
G1 X122.334 Y135.348 E0.02509 F2100.000
G1 X122.667 Y135.348 E0.01667
G1 X123.007 Y135.391 E0.01716
G1 X123.479 Y135.528 E0.02460
G1 X123.925 Y135.755 E0.02507
G1 X124.320 Y136.062 E0.02507
G1 X124.651 Y136.437 E0.02507
G1 X124.906 Y136.868 E0.02507
G1 X125.075 Y137.339 E0.02507
G1 X125.153 Y137.833 E0.02507
G1 X125.138 Y138.333 E0.02507
G1 X125.029 Y138.822 E0.02507
G1 X124.830 Y139.281 E0.02507
G1 X124.554 Y139.687 E0.02461
G1 X124.319 Y139.937 E0.01718
G1 X124.055 Y140.156 E0.01718
G1 X123.632 Y140.406 E0.02461
G1 X123.161 Y140.575 E0.02507
G1 X122.667 Y140.653 E0.02507
G1 X122.167 Y140.638 E0.02507
G1 X121.678 Y140.529 E0.02507
G1 X121.228 Y140.333 E0.02461
G1 X120.938 Y140.150 E0.01716
G1 X120.682 Y139.938 E0.01667
G1 X120.349 Y139.564 E0.02509
G1 X120.094 Y139.132 E0.02512
G1 X119.925 Y138.661 E0.02507
G1 X119.846 Y138.166 E0.02511
G1 X119.864 Y137.666 E0.02509
G1 X119.926 Y137.339 E0.01666
G1 X120.032 Y137.013 E0.01716
G1 X120.255 Y136.575 E0.02461
G1 X120.519 Y136.236 E0.02152
G1 X120.805 Y136.458 F7200.000
G1 X121.151 Y136.144 E0.02344 F2100.000
G1 X121.523 Y135.924 E0.02164
G1 X121.930 Y135.777 E0.02165
G1 X122.362 Y135.710 E0.02193 F2100.000
G1 X122.644 Y135.710 E0.01412
G1 X122.933 Y135.747 E0.01460
G1 X123.345 Y135.866 E0.02146
G1 X123.730 Y136.062 E0.02164
G1 X124.071 Y136.327 E0.02164
G1 X124.356 Y136.651 E0.02163
G1 X124.576 Y137.023 E0.02164
G1 X124.723 Y137.429 E0.02164
G1 X124.790 Y137.856 E0.02163
G1 X124.777 Y138.288 E0.02164
G1 X124.682 Y138.709 E0.02163
G1 X124.511 Y139.105 E0.02163
G1 X124.270 Y139.460 E0.02147
G1 X124.070 Y139.672 E0.01460
G1 X123.846 Y139.858 E0.01461
G1 X123.477 Y140.076 E0.02146
G1 X123.071 Y140.223 E0.02164
G1 X122.644 Y140.290 E0.02164
G1 X122.212 Y140.277 E0.02164
G1 X121.791 Y140.182 E0.02164
G1 X121.398 Y140.012 E0.02146
G1 X121.152 Y139.856 E0.01460
G1 X120.934 Y139.677 E0.01412
G1 X120.644 Y139.349 E0.02193
G1 X120.424 Y138.977 E0.02166
G1 X120.277 Y138.571 E0.02164
G1 X120.210 Y138.144 E0.02165
G1 X120.225 Y137.706 E0.02193
G1 X120.278 Y137.429 E0.01412
G1 X120.368 Y137.152 E0.01460
G1 X120.563 Y136.770 E0.02146
G1 X120.773 Y136.500 E0.01718
G1 X120.711 Y136.121 F7200.000
G1 E-2.00000 F2100.00000
G1 Z0.650 F7200.000
G1 X120.258 Y135.895 F7200.000
G1 X89.337 Y117.869 F7200.000
G1 X89.105 Y104.742 F7200.000
G1 X89.200 Y104.571 F7200.000
G1 Z0.350 F7200.000
G1 E2.00000 F2100.00000
G1 X88.778 Y104.945 E0.02824 F2100.000
G1 X88.287 Y105.235 E0.02858
G1 X87.752 Y105.428 E0.02850
G1 X87.190 Y105.517 E0.02850
G1 X86.621 Y105.499 E0.02850
G1 X86.066 Y105.375 E0.02850
G1 X85.544 Y105.149 E0.02850
G1 X85.086 Y104.837 E0.02776
G1 X84.798 Y104.568 E0.01975
G1 X84.547 Y104.264 E0.01974
G1 X84.265 Y103.787 E0.02775
G1 X84.072 Y103.252 E0.02850
G1 X83.983 Y102.690 E0.02850
G1 X84.001 Y102.136 E0.02775
G1 X84.074 Y101.749 E0.01974
G1 X84.196 Y101.374 E0.01975
G1 X84.448 Y100.880 E0.02776
G1 X84.797 Y100.431 E0.02850
G1 X85.223 Y100.055 E0.02850
G1 X85.713 Y99.765 E0.02851
G1 X86.250 Y99.572 E0.02857
G1 X86.807 Y99.485 E0.02824 F2100.000
G1 X87.190 Y99.486 E0.01921
G1 X87.581 Y99.535 E0.01972
G1 X88.113 Y99.690 E0.02776
G1 X88.620 Y99.948 E0.02850
G1 X89.069 Y100.297 E0.02850
G1 X89.445 Y100.723 E0.02850
G1 X89.735 Y101.213 E0.02850
G1 X89.928 Y101.748 E0.02850
G1 X90.017 Y102.310 E0.02850
G1 X89.999 Y102.879 E0.02850
G1 X89.875 Y103.434 E0.02850
G1 X89.655 Y103.942 E0.02775
G1 X89.444 Y104.275 E0.01972
G1 X89.233 Y104.530 E0.01658
G1 X88.954 Y104.299 F7200.000
G1 X88.564 Y104.651 E0.02629 F2100.000
G1 X88.132 Y104.906 E0.02512
G1 X87.661 Y105.075 E0.02507
G1 X87.167 Y105.153 E0.02507
G1 X86.667 Y105.138 E0.02507
G1 X86.178 Y105.029 E0.02507
G1 X85.719 Y104.830 E0.02507
G1 X85.313 Y104.554 E0.02461
G1 X85.063 Y104.319 E0.01718
G1 X84.844 Y104.055 E0.01717
G1 X84.594 Y103.632 E0.02461
G1 X84.425 Y103.161 E0.02507
G1 X84.347 Y102.667 E0.02507
G1 X84.362 Y102.176 E0.02461
G1 X84.426 Y101.839 E0.01717
G1 X84.532 Y101.513 E0.01718
G1 X84.755 Y101.075 E0.02461
G1 X85.062 Y100.680 E0.02507
G1 X85.437 Y100.349 E0.02507
G1 X85.868 Y100.094 E0.02507
G1 X86.340 Y99.925 E0.02511
G1 X86.834 Y99.848 E0.02509 F2100.000
G1 X87.167 Y99.848 E0.01667
G1 X87.507 Y99.891 E0.01716
G1 X87.979 Y100.028 E0.02461
G1 X88.425 Y100.255 E0.02507
G1 X88.820 Y100.562 E0.02507
G1 X89.151 Y100.937 E0.02507
G1 X89.406 Y101.368 E0.02507
G1 X89.575 Y101.839 E0.02507
G1 X89.653 Y102.333 E0.02507
G1 X89.638 Y102.833 E0.02507
G1 X89.529 Y103.322 E0.02507
G1 X89.333 Y103.772 E0.02461
G1 X89.150 Y104.062 E0.01716
G1 X88.987 Y104.259 E0.01282
G1 X88.708 Y104.028 F7200.000
G1 X88.349 Y104.356 E0.02434 F2100.000
G1 X87.977 Y104.576 E0.02166
G1 X87.571 Y104.723 E0.02164
G1 X87.144 Y104.790 E0.02163
G1 X86.712 Y104.777 E0.02164
G1 X86.291 Y104.682 E0.02163
G1 X85.895 Y104.511 E0.02163
G1 X85.540 Y104.270 E0.02147
G1 X85.328 Y104.070 E0.01460
G1 X85.142 Y103.846 E0.01461
G1 X84.924 Y103.477 E0.02146
G1 X84.777 Y103.071 E0.02164
G1 X84.710 Y102.644 E0.02164
G1 X84.723 Y102.216 E0.02146
G1 X84.778 Y101.929 E0.01460
G1 X84.868 Y101.652 E0.01461
G1 X85.062 Y101.270 E0.02146
G1 X85.327 Y100.929 E0.02164
G1 X85.651 Y100.644 E0.02163
G1 X86.023 Y100.424 E0.02164
G1 X86.430 Y100.277 E0.02165
G1 X86.862 Y100.210 E0.02193 F2100.000
G1 X87.144 Y100.210 E0.01412
G1 X87.433 Y100.247 E0.01460
G1 X87.845 Y100.366 E0.02147
G1 X88.230 Y100.563 E0.02163
G1 X88.571 Y100.827 E0.02164
G1 X88.856 Y101.151 E0.02164
G1 X89.076 Y101.523 E0.02164
G1 X89.223 Y101.929 E0.02164
G1 X89.290 Y102.356 E0.02164
G1 X89.277 Y102.788 E0.02164
G1 X89.182 Y103.209 E0.02164
G1 X89.012 Y103.602 E0.02146
G1 X88.856 Y103.848 E0.01460
G1 X88.741 Y103.988 E0.00906
G1 X88.799 Y104.366 F7200.000
G1 E-2.00000 F2100.00000
G1 Z0.650 F7200.000
G1 X92.849 Y103.859 F7200.000
G1 Z0.350 F7200.000
G1 E2.00000 F2100.00000
G1 X92.806 Y102.500 E0.06810 F2100.000
G1 X92.865 Y100.636 E0.09345
G1 X93.040 Y98.778 E0.09345
G1 X93.332 Y96.934 E0.09355
G1 X93.775 Y94.990 E0.09990
G1 X94.259 Y93.324 E0.08689
G1 X94.891 Y91.569 E0.09345
G1 X95.632 Y89.857 E0.09345
G1 X96.479 Y88.195 E0.09345
G1 X97.429 Y86.589 E0.09345
G1 X98.477 Y85.046 E0.09345
G1 X99.620 Y83.572 E0.09345
G1 X100.854 Y82.173 E0.09345
G1 X102.173 Y80.854 E0.09345
G1 X103.572 Y79.620 E0.09345
G1 X105.046 Y78.477 E0.09345
G1 X106.589 Y77.429 E0.09345
G1 X108.195 Y76.479 E0.09345
G1 X109.859 Y75.631 E0.09355
G1 X111.692 Y74.847 E0.09990
G1 X113.324 Y74.259 E0.08689
G1 X115.115 Y73.739 E0.09345
G1 X116.936 Y73.332 E0.09345
G1 X118.780 Y73.040 E0.09355
G1 X120.766 Y72.860 E0.09990
G1 X122.500 Y72.806 E0.08689 F2100.000
G1 X124.365 Y72.865 E0.09345
G1 X126.222 Y73.040 E0.09345
G1 X128.066 Y73.332 E0.09355
G1 X130.010 Y73.775 E0.09990
G1 X131.676 Y74.259 E0.08689
G1 X133.431 Y74.891 E0.09345
G1 X135.143 Y75.632 E0.09345
G1 X136.805 Y76.479 E0.09345
G1 X138.411 Y77.429 E0.09345
G1 X139.954 Y78.477 E0.09345
G1 X141.428 Y79.620 E0.09345
G1 X142.827 Y80.854 E0.09345
G1 X144.146 Y82.173 E0.09345
G1 X145.380 Y83.572 E0.09345
G1 X146.523 Y85.046 E0.09345
G1 X147.571 Y86.589 E0.09345
G1 X148.521 Y88.195 E0.09345
G1 X149.368 Y89.857 E0.09345
G1 X150.109 Y91.569 E0.09345
G1 X150.741 Y93.324 E0.09345
G1 X151.261 Y95.115 E0.09345
G1 X151.668 Y96.936 E0.09345
G1 X151.960 Y98.778 E0.09345
G1 X152.135 Y100.636 E0.09345
G1 X152.194 Y102.500 E0.09345
G1 X152.135 Y104.365 E0.09345
G1 X151.960 Y106.222 E0.09345
G1 X151.668 Y108.064 E0.09345
G1 X151.261 Y109.885 E0.09345
G1 X150.741 Y111.676 E0.09345
G1 X150.109 Y113.431 E0.09345
G1 X149.368 Y115.143 E0.09345
G1 X148.521 Y116.805 E0.09345
G1 X147.571 Y118.411 E0.09345
G1 X146.523 Y119.954 E0.09345
G1 X145.380 Y121.428 E0.09345
G1 X144.146 Y122.827 E0.09345
G1 X142.827 Y124.146 E0.09345
G1 X141.428 Y125.380 E0.09345
G1 X139.954 Y126.523 E0.09345
G1 X138.411 Y127.571 E0.09345
G1 X136.805 Y128.521 E0.09345
G1 X135.143 Y129.368 E0.09345
G1 X133.431 Y130.109 E0.09345
G1 X131.676 Y130.741 E0.09345
G1 X129.885 Y131.261 E0.09345
G1 X128.064 Y131.668 E0.09345
G1 X126.222 Y131.960 E0.09345
G1 X124.365 Y132.135 E0.09345
G1 X122.500 Y132.194 E0.09345
G1 X120.636 Y132.135 E0.09345
G1 X118.778 Y131.960 E0.09345
G1 X116.936 Y131.668 E0.09345
G1 X115.115 Y131.261 E0.09345
G1 X113.324 Y130.741 E0.09345
G1 X111.569 Y130.109 E0.09345
G1 X109.857 Y129.368 E0.09345
G1 X108.195 Y128.521 E0.09345
G1 X106.589 Y127.571 E0.09345
G1 X105.046 Y126.523 E0.09345
G1 X103.572 Y125.380 E0.09345
G1 X102.173 Y124.146 E0.09345
G1 X100.947 Y122.920 E0.08689
G1 X99.622 Y121.429 E0.09991
G1 X98.477 Y119.954 E0.09355
G1 X97.429 Y118.411 E0.09345
G1 X96.479 Y116.805 E0.09345
G1 X95.632 Y115.143 E0.09345
G1 X94.891 Y113.431 E0.09345
G1 X94.259 Y111.676 E0.09345
G1 X93.739 Y109.885 E0.09345
G1 X93.332 Y108.064 E0.09345
G1 X93.040 Y106.222 E0.09345
G1 X92.865 Y104.365 E0.09345
G1 X92.850 Y103.911 E0.02272
G1 X93.213 Y103.900 F7200.000
G1 X93.169 Y102.500 E0.07016 F2100.000
G1 X93.226 Y100.658 E0.09231
G1 X93.400 Y98.824 E0.09231
G1 X93.688 Y97.003 E0.09237
G1 X94.126 Y95.081 E0.09876
G1 X94.604 Y93.436 E0.08578
G1 X95.228 Y91.702 E0.09231
G1 X95.960 Y90.011 E0.09231
G1 X96.797 Y88.369 E0.09231
G1 X97.735 Y86.783 E0.09231
G1 X98.770 Y85.259 E0.09231
G1 X99.900 Y83.803 E0.09231
G1 X101.118 Y82.421 E0.09231
G1 X102.421 Y81.118 E0.09231
G1 X103.803 Y79.900 E0.09231
G1 X105.259 Y78.770 E0.09231
G1 X106.783 Y77.735 E0.09231
G1 X108.369 Y76.797 E0.09231
G1 X110.012 Y75.960 E0.09237
G1 X111.825 Y75.184 E0.09876
G1 X113.436 Y74.604 E0.08579
G1 X115.206 Y74.090 E0.09231
G1 X117.004 Y73.688 E0.09231
G1 X118.825 Y73.400 E0.09237
G1 X120.788 Y73.222 E0.09876
G1 X122.500 Y73.169 E0.08578 F2100.000
G1 X124.342 Y73.226 E0.09231
G1 X126.176 Y73.400 E0.09231
G1 X127.997 Y73.688 E0.09237
G1 X129.919 Y74.126 E0.09876
G1 X131.564 Y74.604 E0.08578
G1 X133.298 Y75.228 E0.09231
G1 X134.989 Y75.960 E0.09231
G1 X136.631 Y76.797 E0.09231
G1 X138.217 Y77.735 E0.09231
G1 X139.741 Y78.770 E0.09231
G1 X141.197 Y79.900 E0.09231
G1 X142.579 Y81.118 E0.09231
G1 X143.882 Y82.421 E0.09231
G1 X145.100 Y83.803 E0.09231
G1 X146.230 Y85.259 E0.09231
G1 X147.265 Y86.783 E0.09231
G1 X148.203 Y88.369 E0.09231
G1 X149.040 Y90.011 E0.09231
G1 X149.772 Y91.702 E0.09231
G1 X150.396 Y93.436 E0.09231
G1 X150.910 Y95.206 E0.09231
G1 X151.312 Y97.004 E0.09231
G1 X151.600 Y98.824 E0.09231
G1 X151.774 Y100.658 E0.09231
G1 X151.831 Y102.500 E0.09231
G1 X151.774 Y104.342 E0.09231
G1 X151.600 Y106.176 E0.09231
G1 X151.312 Y107.996 E0.09231
G1 X150.910 Y109.794 E0.09231
G1 X150.396 Y111.564 E0.09231
G1 X149.772 Y113.298 E0.09231
G1 X149.040 Y114.989 E0.09231
G1 X148.203 Y116.631 E0.09231
G1 X147.265 Y118.217 E0.09231
G1 X146.230 Y119.741 E0.09231
G1 X145.100 Y121.197 E0.09231
G1 X143.882 Y122.579 E0.09231
G1 X142.579 Y123.882 E0.09231
G1 X141.197 Y125.100 E0.09231
G1 X139.741 Y126.230 E0.09231
G1 X138.217 Y127.265 E0.09231
G1 X136.631 Y128.203 E0.09231
G1 X134.989 Y129.040 E0.09231
G1 X133.298 Y129.772 E0.09231
G1 X131.564 Y130.396 E0.09231
G1 X129.794 Y130.910 E0.09231
G1 X127.996 Y131.312 E0.09231
G1 X126.176 Y131.600 E0.09231
G1 X124.342 Y131.774 E0.09231
G1 X122.500 Y131.831 E0.09231
G1 X120.658 Y131.774 E0.09231
G1 X118.824 Y131.600 E0.09231
G1 X117.004 Y131.312 E0.09231
G1 X115.206 Y130.910 E0.09231
G1 X113.436 Y130.396 E0.09231
G1 X111.702 Y129.772 E0.09231
G1 X110.011 Y129.040 E0.09231
G1 X108.369 Y128.203 E0.09231
G1 X106.783 Y127.265 E0.09231
G1 X105.259 Y126.230 E0.09231
G1 X103.803 Y125.100 E0.09231
G1 X102.421 Y123.882 E0.09231
G1 X101.210 Y122.671 E0.08578
G1 X99.900 Y121.197 E0.09876
G1 X98.770 Y119.741 E0.09237
G1 X97.735 Y118.217 E0.09231
G1 X96.797 Y116.631 E0.09231
G1 X95.960 Y114.989 E0.09231
G1 X95.228 Y113.298 E0.09231
G1 X94.604 Y111.564 E0.09231
G1 X94.090 Y109.794 E0.09231
G1 X93.688 Y107.996 E0.09231
G1 X93.400 Y106.176 E0.09231
G1 X93.226 Y104.342 E0.09231
G1 X93.214 Y103.952 E0.01952
G1 X93.576 Y103.941 F7200.000
G1 X93.531 Y102.500 E0.07222 F2100.000
G1 X93.588 Y100.681 E0.09117
G1 X93.760 Y98.869 E0.09117
G1 X94.044 Y97.071 E0.09119
G1 X94.477 Y95.171 E0.09762
G1 X94.949 Y93.548 E0.08468
G1 X95.565 Y91.836 E0.09117
G1 X96.288 Y90.166 E0.09117
G1 X97.114 Y88.544 E0.09117
G1 X98.041 Y86.978 E0.09117
G1 X99.064 Y85.473 E0.09117
G1 X100.179 Y84.035 E0.09116
G1 X101.383 Y82.669 E0.09117
G1 X102.669 Y81.383 E0.09117
G1 X104.035 Y80.179 E0.09117
G1 X105.473 Y79.064 E0.09116
G1 X106.978 Y78.041 E0.09117
G1 X108.544 Y77.114 E0.09117
G1 X110.166 Y76.288 E0.09119
G1 X111.958 Y75.522 E0.09762
G1 X113.548 Y74.949 E0.08468
G1 X115.296 Y74.441 E0.09117
G1 X117.072 Y74.044 E0.09117
G1 X118.870 Y73.760 E0.09119
G1 X120.810 Y73.584 E0.09762
G1 X122.500 Y73.531 E0.08468 F2100.000
G1 X124.319 Y73.588 E0.09117
G1 X126.131 Y73.760 E0.09117
G1 X127.929 Y74.044 E0.09119
G1 X129.829 Y74.477 E0.09762
G1 X131.452 Y74.949 E0.08468
G1 X133.164 Y75.565 E0.09117
G1 X134.834 Y76.288 E0.09117
G1 X136.456 Y77.114 E0.09117
G1 X138.022 Y78.041 E0.09117
G1 X139.527 Y79.064 E0.09117
G1 X140.965 Y80.179 E0.09116
G1 X142.331 Y81.383 E0.09117
G1 X143.617 Y82.669 E0.09117
G1 X144.821 Y84.035 E0.09117
G1 X145.936 Y85.473 E0.09116
G1 X146.959 Y86.978 E0.09117
G1 X147.886 Y88.544 E0.09117
G1 X148.712 Y90.166 E0.09117
G1 X149.435 Y91.836 E0.09117
G1 X150.051 Y93.548 E0.09117
G1 X150.559 Y95.296 E0.09117
G1 X150.956 Y97.072 E0.09117
G1 X151.240 Y98.869 E0.09117
G1 X151.412 Y100.681 E0.09117
G1 X151.469 Y102.500 E0.09117
G1 X151.412 Y104.319 E0.09117
G1 X151.240 Y106.131 E0.09117
G1 X150.956 Y107.928 E0.09117
G1 X150.559 Y109.704 E0.09117
G1 X150.051 Y111.452 E0.09117
G1 X149.435 Y113.164 E0.09117
G1 X148.712 Y114.834 E0.09117
G1 X147.886 Y116.456 E0.09117
G1 X146.959 Y118.022 E0.09117
G1 X145.936 Y119.527 E0.09117
G1 X144.821 Y120.965 E0.09116
G1 X143.617 Y122.331 E0.09117
G1 X142.331 Y123.617 E0.09117
G1 X140.965 Y124.821 E0.09117
G1 X139.527 Y125.936 E0.09116
G1 X138.022 Y126.959 E0.09117
G1 X136.456 Y127.886 E0.09117
G1 X134.834 Y128.712 E0.09117
G1 X133.164 Y129.435 E0.09117
G1 X131.452 Y130.051 E0.09117
G1 X129.704 Y130.559 E0.09117
G1 X127.928 Y130.956 E0.09117
G1 X126.131 Y131.240 E0.09117
G1 X124.319 Y131.412 E0.09117
G1 X122.500 Y131.469 E0.09117
G1 X120.681 Y131.412 E0.09117
G1 X118.869 Y131.240 E0.09117
