; generated by Slic3r 1.2.7-dev on 2015-04-19 at 23:39:29

; external perimeters extrusion width = 0.35mm
; perimeters extrusion width = 0.52mm
; infill extrusion width = 0.52mm
; solid infill extrusion width = 0.52mm
; top infill extrusion width = 0.52mm

M190 S80 ; set bed temperature
M104 S210 T1 ; set temperature
G28 ; home all axes
G1 Z5 F5000 ; lift nozzle

M109 S210 T1 ; wait for temperature to be reached
G21 ; set units to millimeters
G90 ; use absolute coordinates
M82 ; use absolute distances for extrusion
G92 E0
T1
G92 E0
G1 E-2.00000 F2100.00000
G92 E0
G1 Z0.300 F7200.000
G1 Z0.350 F7200.000
G1 Z0.650 F7200.000
G1 X103.666 Y135.433 F7200.000
G1 Z0.350 F7200.000
G1 E2.00000 F2100.00000
G1 X104.195 Y134.966 E2.03686 F2100.000
G1 X104.803 Y134.606 E2.07371
G1 X105.442 Y134.376 E2.10919
G1 X105.929 Y134.283 E2.13507
G1 X106.414 Y134.252 E2.16040 F2100.000
G1 X107.100 Y134.315 E2.19641
G1 X107.781 Y134.513 E2.23338
G1 X108.410 Y134.833 E2.27024
G1 X108.968 Y135.266 E2.30710
G1 X109.417 Y135.776 E2.34258
G1 X109.683 Y136.194 E2.36846
G1 X109.890 Y136.633 E2.39378
G1 X110.084 Y137.295 E2.42980
G1 X110.151 Y138.000 E2.46678
G1 X110.084 Y138.705 E2.50376
G1 X109.890 Y139.367 E2.53978
G1 X109.683 Y139.806 E2.56509
G1 X109.417 Y140.224 E2.59098
G1 X108.968 Y140.734 E2.62646
G1 X108.410 Y141.167 E2.66331
G1 X107.781 Y141.487 E2.70017
G1 X107.103 Y141.684 E2.73702
G1 X106.400 Y141.751 E2.77387
G1 X105.697 Y141.684 E2.81073
G1 X105.019 Y141.487 E2.84757
G1 X104.388 Y141.166 E2.88456
G1 X103.844 Y140.741 E2.92057
G1 X103.513 Y140.387 E2.94590
G1 X103.221 Y139.986 E2.97179
G1 X102.913 Y139.381 E3.00726
G1 X102.716 Y138.703 E3.04412
G1 X102.649 Y138.000 E3.08097
G1 X102.716 Y137.297 E3.11782
G1 X102.913 Y136.619 E3.15468
G1 X103.233 Y135.990 E3.19153
G1 X103.634 Y135.474 E3.22564
G1 X103.920 Y135.696 F7200.000
G1 X104.409 Y135.260 E3.25986 F2100.000
G1 X104.958 Y134.936 E3.29314
G1 X105.538 Y134.727 E3.32534
G1 X105.975 Y134.643 E3.34855
G1 X106.409 Y134.616 E3.37122 F2100.000
G1 X107.033 Y134.673 E3.40395
G1 X107.647 Y134.851 E3.43732
G1 X108.215 Y135.140 E3.47060
G1 X108.718 Y135.531 E3.50388
G1 X109.126 Y135.994 E3.53608
G1 X109.365 Y136.369 E3.55930
G1 X109.550 Y136.762 E3.58196
G1 X109.727 Y137.364 E3.61469
G1 X109.787 Y138.000 E3.64807
G1 X109.727 Y138.636 E3.68144
G1 X109.550 Y139.238 E3.71417
G1 X109.365 Y139.631 E3.73684
G1 X109.126 Y140.006 E3.76006
G1 X108.718 Y140.469 E3.79226
G1 X108.215 Y140.860 E3.82554
G1 X107.647 Y141.149 E3.85882
G1 X107.035 Y141.327 E3.89209
G1 X106.400 Y141.387 E3.92537
G1 X105.765 Y141.327 E3.95865
G1 X105.153 Y141.149 E3.99192
G1 X104.584 Y140.859 E4.02530
G1 X104.090 Y140.473 E4.05802
G1 X103.792 Y140.156 E4.08070
G1 X103.531 Y139.796 E4.10392
G1 X103.251 Y139.247 E4.13611
G1 X103.073 Y138.635 E4.16939
G1 X103.013 Y138.000 E4.20267
G1 X103.073 Y137.365 E4.23594
G1 X103.251 Y136.753 E4.26923
G1 X103.541 Y136.185 E4.30250
G1 X103.888 Y135.738 E4.33208
G1 X104.174 Y135.960 F7200.000
G1 X104.623 Y135.555 E4.36366 F2100.000
G1 X105.113 Y135.265 E4.39336
G1 X105.634 Y135.077 E4.42228
G1 X106.021 Y135.004 E4.44283
G1 X106.404 Y134.979 E4.46285 F2100.000
G1 X106.965 Y135.030 E4.49228
G1 X107.513 Y135.189 E4.52205
G1 X108.020 Y135.448 E4.55176
G1 X108.469 Y135.797 E4.58146
G1 X108.836 Y136.212 E4.61038
G1 X109.046 Y136.544 E4.63094
G1 X109.210 Y136.891 E4.65095
G1 X109.369 Y137.432 E4.68039
G1 X109.423 Y138.000 E4.71016
G1 X109.369 Y138.568 E4.73993
G1 X109.210 Y139.109 E4.76937
G1 X109.046 Y139.456 E4.78939
G1 X108.836 Y139.788 E4.80994
G1 X108.469 Y140.203 E4.83886
G1 X108.020 Y140.552 E4.86856
G1 X107.513 Y140.811 E4.89827
G1 X106.966 Y140.969 E4.92796
G1 X106.400 Y141.023 E4.95766
G1 X105.834 Y140.969 E4.98736
G1 X105.287 Y140.811 E5.01706
G1 X104.779 Y140.552 E5.04684
G1 X104.335 Y140.205 E5.07627
G1 X104.072 Y139.925 E5.09629
G1 X103.841 Y139.606 E5.11685
G1 X103.590 Y139.113 E5.14576
G1 X103.431 Y138.566 E5.17547
G1 X103.377 Y138.000 E5.20517
G1 X103.431 Y137.434 E5.23487
G1 X103.590 Y136.887 E5.26457
G1 X103.848 Y136.380 E5.29427
G1 X104.142 Y136.001 E5.31932
G1 X104.428 Y136.223 F7200.000
G1 X104.837 Y135.849 E5.34826 F2100.000
G1 X105.268 Y135.594 E5.37438
G1 X105.730 Y135.428 E5.40003
G1 X106.067 Y135.364 E5.41791
G1 X106.399 Y135.342 E5.43528 F2100.000
G1 X106.897 Y135.388 E5.46142
G1 X107.379 Y135.528 E5.48759
G1 X107.825 Y135.755 E5.51372
G1 X108.220 Y136.062 E5.53984
G1 X108.545 Y136.430 E5.56549
G1 X108.728 Y136.720 E5.58337
G1 X108.870 Y137.020 E5.60074
G1 X109.012 Y137.501 E5.62689
G1 X109.059 Y138.000 E5.65305
G1 X109.012 Y138.499 E5.67922
G1 X108.870 Y138.980 E5.70537
G1 X108.728 Y139.280 E5.72273
G1 X108.545 Y139.570 E5.74062
G1 X108.220 Y139.938 E5.76626
G1 X107.825 Y140.245 E5.79239
G1 X107.379 Y140.472 E5.81851
G1 X106.898 Y140.612 E5.84464
G1 X106.400 Y140.659 E5.87076
G1 X105.902 Y140.612 E5.89688
G1 X105.421 Y140.472 E5.92301
G1 X104.975 Y140.244 E5.94918
G1 X104.580 Y139.936 E5.97532
G1 X104.352 Y139.694 E5.99269
G1 X104.151 Y139.416 E6.01058
G1 X103.928 Y138.979 E6.03621
G1 X103.788 Y138.498 E6.06234
G1 X103.741 Y138.000 E6.08847
G1 X103.788 Y137.502 E6.11459
G1 X103.928 Y137.021 E6.14072
G1 X104.155 Y136.575 E6.16684
G1 X104.396 Y136.265 E6.18736
G1 X104.682 Y136.487 F7200.000
G1 X105.051 Y136.144 E6.21366 F2100.000
G1 X105.423 Y135.924 E6.23621
G1 X105.826 Y135.779 E6.25858
G1 X106.112 Y135.724 E6.27379
G1 X106.394 Y135.706 E6.28851 F2100.000
G1 X106.830 Y135.746 E6.31137
G1 X107.245 Y135.866 E6.33393
G1 X107.630 Y136.062 E6.35648
G1 X107.971 Y136.327 E6.37903
G1 X108.254 Y136.649 E6.40139
G1 X108.410 Y136.895 E6.41661
G1 X108.531 Y137.150 E6.43132
G1 X108.654 Y137.570 E6.45418
G1 X108.695 Y138.000 E6.47675
G1 X108.654 Y138.430 E6.49931
G1 X108.531 Y138.850 E6.52217
G1 X108.410 Y139.105 E6.53688
G1 X108.254 Y139.351 E6.55210
G1 X107.971 Y139.673 E6.57447
G1 X107.630 Y139.938 E6.59702
G1 X107.245 Y140.134 E6.61956
G1 X106.830 Y140.254 E6.64211
G1 X106.400 Y140.295 E6.66466
G1 X105.970 Y140.254 E6.68721
G1 X105.555 Y140.134 E6.70975
G1 X105.170 Y139.937 E6.73232
G1 X104.825 Y139.668 E6.75517
G1 X104.632 Y139.462 E6.76989
G1 X104.461 Y139.226 E6.78511
G1 X104.266 Y138.845 E6.80747
G1 X104.146 Y138.430 E6.83002
G1 X104.105 Y138.000 E6.85257
G1 X104.146 Y137.570 E6.87511
G1 X104.266 Y137.155 E6.89767
G1 X104.463 Y136.770 E6.92021
G1 X104.650 Y136.528 E6.93620
G1 X104.586 Y136.151 F7200.000
G1 E4.93620 F2100.00000
G92 E0
G1 Z0.650 F7200.000
G1 X139.166 Y105.068 F7200.000
G1 Z0.350 F7200.000
G1 E2.00000 F2100.00000
G1 X138.733 Y104.510 E2.03685 F2100.000
G1 X138.413 Y103.881 E2.07371
G1 X138.216 Y103.203 E2.11056
G1 X138.149 Y102.500 E2.14742
G1 X138.216 Y101.797 E2.18427
G1 X138.413 Y101.119 E2.22112
G1 X138.733 Y100.490 E2.25798
G1 X139.166 Y99.932 E2.29483
G1 X139.695 Y99.466 E2.33168
G1 X140.303 Y99.106 E2.36854
G1 X140.942 Y98.876 E2.40402
G1 X141.429 Y98.783 E2.42990
G1 X141.914 Y98.752 E2.45523 F2100.000
G1 X142.600 Y98.815 E2.49123
G1 X143.281 Y99.013 E2.52823
G1 X143.910 Y99.333 E2.56508
G1 X144.467 Y99.766 E2.60193
G1 X144.917 Y100.276 E2.63741
G1 X145.183 Y100.694 E2.66329
G1 X145.390 Y101.133 E2.68861
G1 X145.584 Y101.795 E2.72462
G1 X145.651 Y102.500 E2.76161
G1 X145.584 Y103.203 E2.79846
G1 X145.387 Y103.881 E2.83531
G1 X145.066 Y104.512 E2.87230
G1 X144.641 Y105.056 E2.90830
G1 X144.287 Y105.387 E2.93363
G1 X143.886 Y105.679 E2.95952
G1 X143.281 Y105.987 E2.99499
G1 X142.603 Y106.184 E3.03185
G1 X141.900 Y106.251 E3.06870
G1 X141.195 Y106.184 E3.10568
G1 X140.533 Y105.990 E3.14170
G1 X140.094 Y105.783 E3.16702
G1 X139.676 Y105.517 E3.19290
G1 X139.205 Y105.102 E3.22564
G1 X139.445 Y104.830 F7200.000
G1 X139.040 Y104.315 E3.25986 F2100.000
G1 X138.751 Y103.747 E3.29314
G1 X138.573 Y103.135 E3.32641
G1 X138.513 Y102.500 E3.35969
G1 X138.573 Y101.865 E3.39297
G1 X138.751 Y101.253 E3.42624
G1 X139.040 Y100.685 E3.45952
G1 X139.431 Y100.182 E3.49280
G1 X139.909 Y99.760 E3.52607
G1 X140.458 Y99.436 E3.55936
G1 X141.038 Y99.227 E3.59155
G1 X141.475 Y99.143 E3.61477
G1 X141.909 Y99.116 E3.63745 F2100.000
G1 X142.533 Y99.173 E3.67016
G1 X143.147 Y99.351 E3.70355
G1 X143.715 Y99.641 E3.73682
G1 X144.218 Y100.031 E3.77010
G1 X144.626 Y100.494 E3.80230
G1 X144.864 Y100.869 E3.82551
G1 X145.050 Y101.262 E3.84819
G1 X145.227 Y101.863 E3.88091
G1 X145.287 Y102.500 E3.91429
G1 X145.227 Y103.135 E3.94756
G1 X145.049 Y103.747 E3.98084
G1 X144.759 Y104.316 E4.01422
G1 X144.373 Y104.810 E4.04694
G1 X144.056 Y105.108 E4.06961
G1 X143.696 Y105.369 E4.09284
G1 X143.147 Y105.649 E4.12503
G1 X142.535 Y105.827 E4.15831
G1 X141.900 Y105.887 E4.19159
G1 X141.264 Y105.827 E4.22496
G1 X140.662 Y105.650 E4.25769
G1 X140.269 Y105.465 E4.28036
G1 X139.894 Y105.226 E4.30358
G1 X139.484 Y104.865 E4.33208
G1 X139.724 Y104.593 F7200.000
G1 X139.348 Y104.120 E4.36366 F2100.000
G1 X139.089 Y103.613 E4.39336
G1 X138.931 Y103.066 E4.42306
G1 X138.877 Y102.500 E4.45276
G1 X138.931 Y101.934 E4.48246
G1 X139.089 Y101.387 E4.51216
G1 X139.348 Y100.880 E4.54186
G1 X139.697 Y100.431 E4.57156
G1 X140.123 Y100.055 E4.60126
G1 X140.613 Y99.765 E4.63097
G1 X141.134 Y99.577 E4.65989
G1 X141.521 Y99.504 E4.68044
G1 X141.904 Y99.479 E4.70046 F2100.000
G1 X142.465 Y99.530 E4.72989
G1 X143.013 Y99.690 E4.75967
G1 X143.520 Y99.948 E4.78937
G1 X143.969 Y100.297 E4.81907
G1 X144.336 Y100.712 E4.84799
G1 X144.546 Y101.044 E4.86854
G1 X144.710 Y101.391 E4.88856
G1 X144.869 Y101.932 E4.91799
G1 X144.923 Y102.500 E4.94777
G1 X144.869 Y103.066 E4.97747
G1 X144.711 Y103.613 E5.00716
G1 X144.452 Y104.121 E5.03694
G1 X144.105 Y104.565 E5.06637
G1 X143.825 Y104.828 E5.08640
G1 X143.506 Y105.059 E5.10695
G1 X143.013 Y105.310 E5.13586
G1 X142.466 Y105.469 E5.16557
G1 X141.900 Y105.523 E5.19527
G1 X141.332 Y105.469 E5.22504
G1 X140.791 Y105.310 E5.25448
G1 X140.444 Y105.146 E5.27450
G1 X140.112 Y104.936 E5.29505
G1 X139.763 Y104.628 E5.31932
G1 X140.003 Y104.356 F7200.000
G1 X139.655 Y103.925 E5.34826 F2100.000
G1 X139.428 Y103.479 E5.37439
G1 X139.288 Y102.998 E5.40051
G1 X139.241 Y102.500 E5.42663
G1 X139.288 Y102.002 E5.45276
G1 X139.428 Y101.521 E5.47888
G1 X139.655 Y101.075 E5.50501
G1 X139.962 Y100.680 E5.53113
G1 X140.337 Y100.349 E5.55725
G1 X140.768 Y100.094 E5.58338
G1 X141.230 Y99.928 E5.60903
G1 X141.567 Y99.864 E5.62690
G1 X141.899 Y99.842 E5.64428 F2100.000
G1 X142.397 Y99.888 E5.67042
G1 X142.879 Y100.028 E5.69659
G1 X143.325 Y100.255 E5.72271
G1 X143.720 Y100.562 E5.74884
G1 X144.045 Y100.930 E5.77448
G1 X144.228 Y101.220 E5.79236
G1 X144.370 Y101.520 E5.80973
G1 X144.512 Y102.001 E5.83588
G1 X144.559 Y102.500 E5.86205
G1 X144.512 Y102.998 E5.88817
G1 X144.372 Y103.479 E5.91429
G1 X144.144 Y103.925 E5.94046
G1 X143.836 Y104.320 E5.96661
G1 X143.594 Y104.548 E5.98398
G1 X143.316 Y104.749 E6.00186
G1 X142.879 Y104.972 E6.02750
G1 X142.398 Y105.112 E6.05363
G1 X141.900 Y105.159 E6.07975
G1 X141.401 Y105.112 E6.10592
G1 X140.920 Y104.970 E6.13207
G1 X140.620 Y104.828 E6.14944
G1 X140.330 Y104.645 E6.16732
G1 X140.042 Y104.391 E6.18736
G1 X140.282 Y104.119 F7200.000
G1 X139.962 Y103.730 E6.21367 F2100.000
G1 X139.766 Y103.345 E6.23622
G1 X139.646 Y102.930 E6.25876
G1 X139.605 Y102.500 E6.28131
G1 X139.646 Y102.070 E6.30386
G1 X139.766 Y101.655 E6.32640
G1 X139.962 Y101.270 E6.34895
G1 X140.227 Y100.929 E6.37150
G1 X140.551 Y100.644 E6.39405
G1 X140.923 Y100.424 E6.41660
G1 X141.326 Y100.279 E6.43896
G1 X141.612 Y100.224 E6.45417
G1 X141.894 Y100.206 E6.46890 F2100.000
G1 X142.330 Y100.246 E6.49175
G1 X142.745 Y100.366 E6.51432
G1 X143.130 Y100.563 E6.53686
G1 X143.471 Y100.827 E6.55941
G1 X143.754 Y101.149 E6.58178
G1 X143.910 Y101.395 E6.59699
G1 X144.031 Y101.650 E6.61171
G1 X144.154 Y102.070 E6.63457
G1 X144.195 Y102.500 E6.65713
G1 X144.154 Y102.930 E6.67968
G1 X144.034 Y103.345 E6.70222
G1 X143.837 Y103.730 E6.72479
G1 X143.568 Y104.075 E6.74764
G1 X143.362 Y104.268 E6.76236
G1 X143.126 Y104.439 E6.77758
G1 X142.745 Y104.634 E6.79994
G1 X142.330 Y104.754 E6.82249
G1 X141.900 Y104.795 E6.84504
G1 X141.470 Y104.754 E6.86760
G1 X141.050 Y104.631 E6.89046
G1 X140.795 Y104.510 E6.90518
G1 X140.549 Y104.354 E6.92039
G1 X140.321 Y104.154 E6.93620
G1 X139.940 Y104.195 F7200.000
G1 E4.93620 F2100.00000
G92 E0
G1 Z0.650 F7200.000
G1 X108.968 Y69.734 F7200.000
G1 Z0.350 F7200.000
G1 E2.00000 F2100.00000
G1 X108.410 Y70.167 E2.03685 F2100.000
G1 X107.781 Y70.487 E2.07371
G1 X107.103 Y70.684 E2.11056
G1 X106.400 Y70.751 E2.14742
G1 X105.697 Y70.684 E2.18427
G1 X105.019 Y70.487 E2.22112
G1 X104.390 Y70.167 E2.25798
G1 X103.832 Y69.734 E2.29483
G1 X103.383 Y69.224 E2.33031
G1 X103.117 Y68.805 E2.35625
G1 X102.905 Y68.355 E2.38218
G1 X102.716 Y67.703 E2.41766
G1 X102.649 Y67.000 E2.45451
G1 X102.716 Y66.297 E2.49137
G1 X102.913 Y65.619 E2.52823
G1 X103.233 Y64.990 E2.56508
G1 X103.666 Y64.433 E2.60193
G1 X104.195 Y63.966 E2.63878
G1 X104.803 Y63.606 E2.67564
G1 X105.442 Y63.376 E2.71112
G1 X105.929 Y63.283 E2.73700
G1 X106.414 Y63.252 E2.76232 F2100.000
G1 X107.100 Y63.315 E2.79833
G1 X107.781 Y63.513 E2.83531
G1 X108.410 Y63.833 E2.87217
G1 X108.968 Y64.266 E2.90902
G1 X109.417 Y64.776 E2.94450
G1 X109.683 Y65.194 E2.97039
G1 X109.890 Y65.633 E2.99571
G1 X110.084 Y66.295 E3.03173
G1 X110.151 Y67.000 E3.06871
G1 X110.084 Y67.705 E3.10568
G1 X109.890 Y68.367 E3.14170
G1 X109.683 Y68.806 E3.16702
G1 X109.417 Y69.224 E3.19291
G1 X109.002 Y69.695 E3.22564
G1 X108.730 Y69.455 F7200.000
G1 X108.215 Y69.860 E3.25986 F2100.000
G1 X107.647 Y70.149 E3.29314
G1 X107.035 Y70.327 E3.32641
G1 X106.400 Y70.387 E3.35969
G1 X105.765 Y70.327 E3.39297
G1 X105.153 Y70.149 E3.42624
G1 X104.585 Y69.860 E3.45952
G1 X104.082 Y69.469 E3.49280
G1 X103.674 Y69.006 E3.52500
G1 X103.435 Y68.630 E3.54826
G1 X103.245 Y68.227 E3.57151
G1 X103.073 Y67.635 E3.60372
G1 X103.013 Y67.000 E3.63699
G1 X103.073 Y66.365 E3.67027
G1 X103.251 Y65.753 E3.70355
G1 X103.541 Y65.185 E3.73683
G1 X103.931 Y64.682 E3.77010
G1 X104.409 Y64.260 E3.80338
G1 X104.958 Y63.936 E3.83666
G1 X105.538 Y63.727 E3.86886
G1 X105.975 Y63.643 E3.89207
G1 X106.409 Y63.616 E3.91475 F2100.000
G1 X107.033 Y63.673 E3.94747
G1 X107.647 Y63.851 E3.98084
G1 X108.215 Y64.140 E4.01413
G1 X108.718 Y64.531 E4.04740
G1 X109.126 Y64.994 E4.07960
G1 X109.365 Y65.369 E4.10282
G1 X109.550 Y65.762 E4.12549
G1 X109.727 Y66.364 E4.15822
G1 X109.787 Y67.000 E4.19159
G1 X109.727 Y67.636 E4.22497
G1 X109.550 Y68.238 E4.25770
G1 X109.365 Y68.631 E4.28036
G1 X109.126 Y69.006 E4.30358
G1 X108.765 Y69.416 E4.33209
G1 X108.493 Y69.176 F7200.000
G1 X108.020 Y69.552 E4.36366 F2100.000
G1 X107.513 Y69.811 E4.39337
G1 X106.966 Y69.969 E4.42307
G1 X106.400 Y70.023 E4.45277
G1 X105.834 Y69.969 E4.48247
G1 X105.287 Y69.811 E4.51216
G1 X104.780 Y69.552 E4.54187
G1 X104.331 Y69.203 E4.57157
G1 X103.964 Y68.788 E4.60049
G1 X103.753 Y68.455 E4.62107
G1 X103.585 Y68.098 E4.64165
G1 X103.431 Y67.566 E4.67057
G1 X103.377 Y67.000 E4.70027
G1 X103.431 Y66.434 E4.72997
G1 X103.590 Y65.887 E4.75968
G1 X103.848 Y65.380 E4.78938
G1 X104.197 Y64.931 E4.81907
G1 X104.623 Y64.555 E4.84878
G1 X105.113 Y64.265 E4.87848
G1 X105.634 Y64.077 E4.90740
G1 X106.021 Y64.004 E4.92795
G1 X106.404 Y63.979 E4.94797 F2100.000
G1 X106.965 Y64.030 E4.97740
G1 X107.513 Y64.189 E5.00717
G1 X108.020 Y64.448 E5.03688
G1 X108.469 Y64.797 E5.06658
G1 X108.836 Y65.212 E5.09550
G1 X109.046 Y65.544 E5.11605
G1 X109.210 Y65.891 E5.13607
G1 X109.369 Y66.432 E5.16551
G1 X109.423 Y67.000 E5.19528
G1 X109.369 Y67.568 E5.22505
G1 X109.210 Y68.109 E5.25449
G1 X109.046 Y68.455 E5.27450
G1 X108.836 Y68.788 E5.29506
G1 X108.528 Y69.137 E5.31933
G1 X108.256 Y68.897 F7200.000
G1 X107.825 Y69.245 E5.34827 F2100.000
G1 X107.379 Y69.472 E5.37440
G1 X106.898 Y69.612 E5.40052
G1 X106.400 Y69.659 E5.42664
G1 X105.902 Y69.612 E5.45277
G1 X105.421 Y69.472 E5.47889
G1 X104.975 Y69.245 E5.50502
G1 X104.580 Y68.938 E5.53114
G1 X104.255 Y68.570 E5.55678
G1 X104.071 Y68.280 E5.57469
G1 X103.925 Y67.970 E5.59258
G1 X103.788 Y67.498 E5.61823
G1 X103.741 Y67.000 E5.64435
G1 X103.788 Y66.502 E5.67048
G1 X103.928 Y66.021 E5.69661
G1 X104.155 Y65.575 E5.72273
