; generated by Slic3r 1.2.7-dev on 2015-03-20 at 10:34:51

; external perimeters extrusion width = 0.35mm
; perimeters extrusion width = 0.52mm
; infill extrusion width = 0.52mm
; solid infill extrusion width = 0.52mm
; top infill extrusion width = 0.52mm

M190 S75 ; set bed temperature
M104 S205 ; set temperature
G28 ; home all axes
G1 Z5 F5000 ; lift nozzle

M109 S205 ; wait for temperature to be reached
G21 ; set units to millimeters
G90 ; use absolute coordinates
M83 ; use relative distances for extrusion
G1 E-2.00000 F2100.00000
G1 Z0.300 F7200.000
G1 Z0.350 F7200.000
G1 Z0.650 F7200.000
G1 X81.995 Y68.991 F7200.000
G1 Z0.350 F7200.000
G1 E2.00000 F2100.00000
G1 X84.179 Y66.514 E0.17240 F2100.000
G1 X86.514 Y64.179 E0.17241
G1 X88.991 Y61.995 E0.17240
G1 X91.601 Y59.971 E0.17241
G1 X94.332 Y58.115 E0.17240
G1 X97.175 Y56.433 E0.17241
G1 X100.117 Y54.934 E0.17240
G1 X103.148 Y53.623 E0.17241
G1 X106.255 Y52.504 E0.17240
G1 X109.427 Y51.583 E0.17241
G1 X112.650 Y50.862 E0.17241
G1 X115.911 Y50.346 E0.17241
G1 X119.199 Y50.035 E0.17240
G1 X122.065 Y49.945 E0.14969
G1 X122.500 Y49.931 E0.02271 F2100.000
G1 X125.801 Y50.035 E0.17241
G1 X129.089 Y50.346 E0.17240
G1 X132.350 Y50.862 E0.17241
G1 X135.573 Y51.583 E0.17241
G1 X138.745 Y52.504 E0.17241
G1 X141.852 Y53.623 E0.17240
G1 X144.883 Y54.934 E0.17241
G1 X147.825 Y56.433 E0.17240
G1 X150.668 Y58.115 E0.17241
G1 X153.399 Y59.971 E0.17240
G1 X156.009 Y61.995 E0.17241
G1 X158.486 Y64.179 E0.17240
G1 X160.821 Y66.514 E0.17241
G1 X163.005 Y68.991 E0.17240
G1 X165.029 Y71.601 E0.17241
G1 X166.885 Y74.332 E0.17240
G1 X168.567 Y77.175 E0.17241
G1 X170.066 Y80.117 E0.17240
G1 X171.377 Y83.148 E0.17241
G1 X172.496 Y86.255 E0.17240
G1 X173.417 Y89.427 E0.17241
G1 X174.138 Y92.650 E0.17241
G1 X174.654 Y95.911 E0.17241
G1 X174.965 Y99.199 E0.17240
G1 X175.069 Y102.500 E0.17241
G1 X174.965 Y105.801 E0.17241
G1 X174.654 Y109.089 E0.17240
G1 X174.138 Y112.350 E0.17241
G1 X173.417 Y115.573 E0.17241
G1 X172.496 Y118.745 E0.17241
G1 X171.377 Y121.852 E0.17240
G1 X170.066 Y124.883 E0.17241
G1 X168.567 Y127.825 E0.17240
G1 X166.885 Y130.668 E0.17241
G1 X165.029 Y133.399 E0.17240
G1 X163.005 Y136.009 E0.17241
G1 X160.821 Y138.486 E0.17240
G1 X158.486 Y140.821 E0.17241
G1 X156.009 Y143.005 E0.17240
G1 X153.399 Y145.029 E0.17241
G1 X150.668 Y146.885 E0.17240
G1 X147.825 Y148.567 E0.17241
G1 X144.883 Y150.066 E0.17240
G1 X141.852 Y151.377 E0.17241
G1 X138.745 Y152.496 E0.17240
G1 X135.573 Y153.417 E0.17241
G1 X132.350 Y154.138 E0.17241
G1 X129.089 Y154.654 E0.17241
G1 X125.801 Y154.965 E0.17240
G1 X122.500 Y155.069 E0.17241
G1 X119.199 Y154.965 E0.17241
G1 X115.911 Y154.654 E0.17240
G1 X112.650 Y154.138 E0.17241
G1 X109.427 Y153.417 E0.17241
G1 X106.255 Y152.496 E0.17241
G1 X103.148 Y151.377 E0.17240
G1 X100.117 Y150.066 E0.17241
G1 X97.175 Y148.567 E0.17240
G1 X94.332 Y146.885 E0.17241
G1 X91.601 Y145.029 E0.17240
G1 X88.991 Y143.005 E0.17241
G1 X86.514 Y140.821 E0.17240
G1 X84.179 Y138.486 E0.17241
G1 X81.995 Y136.009 E0.17240
G1 X79.971 Y133.399 E0.17241
G1 X78.115 Y130.668 E0.17240
G1 X76.433 Y127.825 E0.17241
G1 X74.934 Y124.883 E0.17240
G1 X73.623 Y121.852 E0.17241
G1 X72.504 Y118.745 E0.17240
G1 X71.583 Y115.573 E0.17241
G1 X70.862 Y112.350 E0.17241
G1 X70.346 Y109.089 E0.17241
G1 X70.035 Y105.801 E0.17240
G1 X69.931 Y102.500 E0.17241
G1 X70.035 Y99.199 E0.17241
G1 X70.346 Y95.911 E0.17240
G1 X70.862 Y92.650 E0.17241
G1 X71.583 Y89.427 E0.17241
G1 X72.504 Y86.255 E0.17241
G1 X73.623 Y83.148 E0.17240
G1 X74.934 Y80.117 E0.17241
G1 X76.433 Y77.175 E0.17240
G1 X78.115 Y74.332 E0.17241
G1 X79.971 Y71.601 E0.17240
G1 X81.963 Y69.033 E0.16967
G1 X82.249 Y69.255 F7200.000
G1 X84.443 Y66.762 E0.17336 F2100.000
G1 X86.762 Y64.443 E0.17122
G1 X89.222 Y62.274 E0.17121
G1 X91.814 Y60.264 E0.17122
G1 X94.526 Y58.421 E0.17121
G1 X97.349 Y56.751 E0.17122
G1 X100.272 Y55.262 E0.17121
G1 X103.282 Y53.960 E0.17122
G1 X106.367 Y52.849 E0.17122
G1 X109.517 Y51.934 E0.17122
G1 X112.717 Y51.218 E0.17122
G1 X115.957 Y50.705 E0.17122
G1 X119.222 Y50.397 E0.17122
G1 X122.077 Y50.307 E0.14910
G1 X122.500 Y50.294 E0.02212 F2100.000
G1 X125.778 Y50.397 E0.17122
G1 X129.043 Y50.705 E0.17122
G1 X132.283 Y51.218 E0.17122
G1 X135.483 Y51.934 E0.17122
G1 X138.633 Y52.849 E0.17122
G1 X141.718 Y53.960 E0.17122
G1 X144.728 Y55.262 E0.17122
G1 X147.651 Y56.751 E0.17121
G1 X150.474 Y58.421 E0.17122
G1 X153.186 Y60.264 E0.17121
G1 X155.778 Y62.274 E0.17122
G1 X158.238 Y64.443 E0.17121
G1 X160.557 Y66.762 E0.17122
G1 X162.726 Y69.222 E0.17121
G1 X164.736 Y71.814 E0.17122
G1 X166.579 Y74.526 E0.17121
G1 X168.249 Y77.349 E0.17122
G1 X169.738 Y80.272 E0.17121
G1 X171.040 Y83.282 E0.17122
G1 X172.151 Y86.367 E0.17122
G1 X173.066 Y89.517 E0.17122
G1 X173.782 Y92.717 E0.17122
G1 X174.295 Y95.957 E0.17122
G1 X174.603 Y99.222 E0.17122
G1 X174.706 Y102.500 E0.17122
G1 X174.603 Y105.778 E0.17122
G1 X174.295 Y109.043 E0.17122
G1 X173.782 Y112.283 E0.17122
G1 X173.066 Y115.483 E0.17122
G1 X172.151 Y118.633 E0.17122
G1 X171.040 Y121.718 E0.17122
G1 X169.738 Y124.728 E0.17122
G1 X168.249 Y127.651 E0.17121
G1 X166.579 Y130.474 E0.17122
G1 X164.736 Y133.186 E0.17121
G1 X162.726 Y135.778 E0.17122
G1 X160.557 Y138.238 E0.17121
G1 X158.238 Y140.557 E0.17122
G1 X155.778 Y142.726 E0.17121
G1 X153.186 Y144.736 E0.17122
G1 X150.474 Y146.579 E0.17121
G1 X147.651 Y148.249 E0.17122
G1 X144.728 Y149.738 E0.17121
G1 X141.718 Y151.040 E0.17122
G1 X138.633 Y152.151 E0.17122
G1 X135.483 Y153.066 E0.17122
G1 X132.283 Y153.782 E0.17122
G1 X129.043 Y154.295 E0.17122
G1 X125.778 Y154.603 E0.17122
G1 X122.500 Y154.706 E0.17122
G1 X119.222 Y154.603 E0.17122
G1 X115.957 Y154.295 E0.17122
G1 X112.717 Y153.782 E0.17122
G1 X109.517 Y153.066 E0.17122
G1 X106.367 Y152.151 E0.17122
G1 X103.282 Y151.040 E0.17122
G1 X100.272 Y149.738 E0.17122
G1 X97.349 Y148.249 E0.17121
G1 X94.526 Y146.579 E0.17122
G1 X91.814 Y144.736 E0.17121
G1 X89.222 Y142.726 E0.17122
G1 X86.762 Y140.557 E0.17121
G1 X84.443 Y138.238 E0.17122
G1 X82.274 Y135.778 E0.17121
G1 X80.264 Y133.186 E0.17122
G1 X78.421 Y130.474 E0.17121
G1 X76.751 Y127.651 E0.17122
G1 X75.262 Y124.728 E0.17121
G1 X73.960 Y121.718 E0.17122
G1 X72.849 Y118.633 E0.17122
G1 X71.934 Y115.483 E0.17122
G1 X71.218 Y112.283 E0.17122
G1 X70.705 Y109.043 E0.17122
G1 X70.397 Y105.778 E0.17122
G1 X70.294 Y102.500 E0.17122
G1 X70.397 Y99.222 E0.17122
G1 X70.705 Y95.957 E0.17122
G1 X71.218 Y92.717 E0.17122
G1 X71.934 Y89.517 E0.17122
G1 X72.849 Y86.367 E0.17122
G1 X73.960 Y83.282 E0.17122
G1 X75.262 Y80.272 E0.17122
G1 X76.751 Y77.349 E0.17121
G1 X78.421 Y74.526 E0.17122
G1 X80.264 Y71.814 E0.17121
G1 X82.217 Y69.296 E0.16633
G1 X82.503 Y69.518 F7200.000
G1 X84.707 Y67.010 E0.17431 F2100.000
G1 X87.010 Y64.707 E0.17003
G1 X89.453 Y62.554 E0.17002
G1 X92.027 Y60.557 E0.17003
G1 X94.721 Y58.727 E0.17002
G1 X97.524 Y57.069 E0.17003
G1 X100.426 Y55.590 E0.17002
G1 X103.415 Y54.297 E0.17003
G1 X106.479 Y53.194 E0.17003
G1 X109.607 Y52.285 E0.17003
G1 X112.785 Y51.574 E0.17003
G1 X116.002 Y51.065 E0.17003
G1 X119.245 Y50.758 E0.17003
G1 X122.088 Y50.669 E0.14850
G1 X122.500 Y50.656 E0.02152 F2100.000
G1 X125.755 Y50.758 E0.17003
G1 X128.998 Y51.065 E0.17003
G1 X132.215 Y51.574 E0.17003
G1 X135.393 Y52.285 E0.17003
G1 X138.521 Y53.194 E0.17003
G1 X141.585 Y54.297 E0.17003
G1 X144.574 Y55.590 E0.17003
G1 X147.476 Y57.069 E0.17002
G1 X150.279 Y58.727 E0.17003
G1 X152.973 Y60.557 E0.17002
G1 X155.547 Y62.554 E0.17003
G1 X157.990 Y64.707 E0.17002
G1 X160.293 Y67.010 E0.17003
G1 X162.446 Y69.453 E0.17002
G1 X164.443 Y72.027 E0.17003
G1 X166.273 Y74.721 E0.17002
G1 X167.931 Y77.524 E0.17003
G1 X169.410 Y80.426 E0.17002
G1 X170.703 Y83.415 E0.17003
G1 X171.806 Y86.479 E0.17003
G1 X172.715 Y89.607 E0.17003
G1 X173.426 Y92.785 E0.17003
G1 X173.935 Y96.002 E0.17003
G1 X174.242 Y99.245 E0.17003
G1 X174.344 Y102.500 E0.17003
G1 X174.242 Y105.755 E0.17003
G1 X173.935 Y108.998 E0.17003
G1 X173.426 Y112.215 E0.17003
G1 X172.715 Y115.393 E0.17003
G1 X171.806 Y118.521 E0.17003
G1 X170.703 Y121.585 E0.17003
G1 X169.410 Y124.574 E0.17003
G1 X167.931 Y127.476 E0.17002
G1 X166.273 Y130.279 E0.17003
G1 X164.443 Y132.973 E0.17002
G1 X162.446 Y135.547 E0.17003
G1 X160.293 Y137.990 E0.17002
G1 X157.990 Y140.293 E0.17003
G1 X155.547 Y142.446 E0.17002
G1 X152.973 Y144.443 E0.17003
G1 X150.279 Y146.273 E0.17002
G1 X147.476 Y147.931 E0.17003
G1 X144.574 Y149.410 E0.17002
G1 X141.585 Y150.703 E0.17003
G1 X138.521 Y151.806 E0.17003
G1 X135.393 Y152.715 E0.17003
G1 X132.215 Y153.426 E0.17003
G1 X128.998 Y153.935 E0.17003
G1 X125.755 Y154.242 E0.17003
G1 X122.500 Y154.344 E0.17003
G1 X119.245 Y154.242 E0.17003
G1 X116.002 Y153.935 E0.17003
G1 X112.785 Y153.426 E0.17003
G1 X109.607 Y152.715 E0.17003
G1 X106.479 Y151.806 E0.17003
G1 X103.415 Y150.703 E0.17003
G1 X100.426 Y149.410 E0.17003
G1 X97.524 Y147.931 E0.17002
G1 X94.721 Y146.273 E0.17003
G1 X92.027 Y144.443 E0.17002
G1 X89.453 Y142.446 E0.17003
G1 X87.010 Y140.293 E0.17002
G1 X84.707 Y137.990 E0.17003
G1 X82.554 Y135.547 E0.17002
G1 X80.557 Y132.973 E0.17003
G1 X78.727 Y130.279 E0.17002
G1 X77.069 Y127.476 E0.17003
G1 X75.590 Y124.574 E0.17002
G1 X74.297 Y121.585 E0.17003
G1 X73.194 Y118.521 E0.17003
G1 X72.285 Y115.393 E0.17003
G1 X71.574 Y112.215 E0.17003
G1 X71.065 Y108.998 E0.17003
G1 X70.758 Y105.755 E0.17003
G1 X70.656 Y102.500 E0.17003
G1 X70.758 Y99.245 E0.17003
G1 X71.065 Y96.002 E0.17003
G1 X71.574 Y92.785 E0.17003
G1 X72.285 Y89.607 E0.17003
G1 X73.194 Y86.479 E0.17003
G1 X74.297 Y83.415 E0.17003
G1 X75.590 Y80.426 E0.17003
G1 X77.069 Y77.524 E0.17002
G1 X78.727 Y74.721 E0.17003
G1 X80.557 Y72.027 E0.17002
G1 X82.471 Y69.560 E0.16300
G1 X82.384 Y69.189 F7200.000
G1 E-2.00000 F2100.00000
G1 Z0.650 F7200.000
G1 X97.148 Y56.384 F7200.000
G1 X108.076 Y46.323 F7200.000
G1 X112.502 Y45.333 F7200.000
G1 Z0.350 F7200.000
G1 E2.00000 F2100.00000
G1 X115.224 Y44.902 E0.14384 F2100.000
G1 X118.855 Y44.559 E0.19040
G1 X122.500 Y44.444 E0.19040
G1 X125.817 Y44.548 E0.17326
G1 X126.145 Y44.559 E0.01714 F2100.000
G1 X129.776 Y44.902 E0.19040
G1 X133.379 Y45.472 E0.19040
G1 X136.938 Y46.268 E0.19040
G1 X140.440 Y47.285 E0.19040
G1 X143.872 Y48.521 E0.19040
G1 X147.219 Y49.969 E0.19040
G1 X150.469 Y51.625 E0.19040
G1 X153.608 Y53.482 E0.19040
G1 X156.624 Y55.532 E0.19040
G1 X159.506 Y57.767 E0.19040
G1 X162.242 Y60.179 E0.19040
G1 X164.821 Y62.758 E0.19040
G1 X167.233 Y65.494 E0.19040
G1 X169.468 Y68.376 E0.19040
G1 X171.518 Y71.392 E0.19040
G1 X173.375 Y74.531 E0.19040
G1 X175.031 Y77.781 E0.19040
G1 X176.479 Y81.128 E0.19040
G1 X177.715 Y84.560 E0.19040
G1 X178.732 Y88.062 E0.19040
G1 X179.528 Y91.621 E0.19040
G1 X180.098 Y95.224 E0.19040
G1 X180.441 Y98.855 E0.19040
G1 X180.556 Y102.500 E0.19040
G1 X180.441 Y106.145 E0.19040
G1 X180.098 Y109.776 E0.19040
G1 X179.528 Y113.379 E0.19040
G1 X178.732 Y116.938 E0.19040
G1 X177.715 Y120.440 E0.19040
G1 X176.479 Y123.872 E0.19040
G1 X175.031 Y127.219 E0.19040
G1 X173.375 Y130.469 E0.19040
G1 X171.518 Y133.608 E0.19040
G1 X169.468 Y136.624 E0.19040
G1 X167.233 Y139.506 E0.19040
G1 X164.821 Y142.242 E0.19040
G1 X162.242 Y144.821 E0.19040
G1 X159.506 Y147.233 E0.19040
G1 X156.624 Y149.468 E0.19040
G1 X153.608 Y151.518 E0.19040
G1 X150.469 Y153.375 E0.19040
G1 X147.219 Y155.031 E0.19040
G1 X143.872 Y156.479 E0.19040
G1 X140.440 Y157.715 E0.19040
G1 X136.938 Y158.732 E0.19040
G1 X133.379 Y159.528 E0.19040
G1 X129.776 Y160.098 E0.19040
G1 X126.145 Y160.441 E0.19040
G1 X122.500 Y160.556 E0.19040
G1 X118.855 Y160.441 E0.19040
G1 X115.224 Y160.098 E0.19040
G1 X111.621 Y159.528 E0.19040
G1 X108.062 Y158.732 E0.19040
G1 X104.560 Y157.715 E0.19040
G1 X101.128 Y156.479 E0.19040
G1 X97.781 Y155.031 E0.19040
G1 X94.531 Y153.375 E0.19040
G1 X91.392 Y151.518 E0.19040
G1 X88.376 Y149.468 E0.19040
G1 X85.494 Y147.233 E0.19040
G1 X82.758 Y144.821 E0.19040
G1 X80.179 Y142.242 E0.19040
G1 X77.767 Y139.506 E0.19040
G1 X75.532 Y136.624 E0.19040
G1 X73.482 Y133.608 E0.19040
G1 X71.625 Y130.469 E0.19040
G1 X69.969 Y127.219 E0.19040
G1 X68.521 Y123.872 E0.19040
G1 X67.285 Y120.440 E0.19040
G1 X66.268 Y116.938 E0.19040
G1 X65.472 Y113.379 E0.19040
G1 X64.902 Y109.776 E0.19040
G1 X64.559 Y106.145 E0.19040
G1 X64.444 Y102.500 E0.19040
G1 X64.559 Y98.855 E0.19040
G1 X64.902 Y95.224 E0.19040
G1 X65.472 Y91.621 E0.19040
G1 X66.268 Y88.062 E0.19040
G1 X67.285 Y84.560 E0.19040
G1 X68.521 Y81.128 E0.19040
G1 X69.969 Y77.781 E0.19040
G1 X71.625 Y74.531 E0.19040
G1 X73.482 Y71.392 E0.19040
G1 X75.532 Y68.376 E0.19040
G1 X77.767 Y65.494 E0.19040
G1 X80.179 Y62.758 E0.19040
G1 X82.758 Y60.179 E0.19040
G1 X85.494 Y57.767 E0.19040
G1 X88.376 Y55.532 E0.19040
G1 X91.392 Y53.482 E0.19040
G1 X94.531 Y51.625 E0.19040
G1 X97.781 Y49.969 E0.19040
G1 X101.128 Y48.521 E0.19040
G1 X104.560 Y47.285 E0.19040
G1 X108.062 Y46.268 E0.19040
G1 X111.621 Y45.472 E0.19040
G1 X112.451 Y45.341 E0.04382
G1 X112.394 Y44.983 F7200.000
G1 X115.178 Y44.542 E0.14717 F2100.000
G1 X118.832 Y44.197 E0.19159
G1 X122.500 Y44.081 E0.19159
G1 X125.829 Y44.186 E0.17386
G1 X126.168 Y44.197 E0.01773 F2100.000
G1 X129.822 Y44.542 E0.19159
G1 X133.447 Y45.116 E0.19159
G1 X137.028 Y45.917 E0.19159
G1 X140.552 Y46.941 E0.19159
G1 X144.005 Y48.184 E0.19159
G1 X147.373 Y49.641 E0.19159
G1 X150.643 Y51.307 E0.19159
G1 X153.802 Y53.176 E0.19159
G1 X156.838 Y55.238 E0.19159
G1 X159.737 Y57.488 E0.19159
G1 X162.490 Y59.915 E0.19159
G1 X165.085 Y62.510 E0.19158
G1 X167.512 Y65.263 E0.19159
G1 X169.762 Y68.162 E0.19159
G1 X171.824 Y71.198 E0.19159
G1 X173.693 Y74.357 E0.19159
G1 X175.359 Y77.627 E0.19159
G1 X176.816 Y80.995 E0.19159
G1 X178.059 Y84.448 E0.19159
G1 X179.083 Y87.972 E0.19159
G1 X179.884 Y91.553 E0.19159
G1 X180.458 Y95.178 E0.19159
G1 X180.803 Y98.832 E0.19159
G1 X180.919 Y102.500 E0.19159
G1 X180.803 Y106.168 E0.19159
G1 X180.458 Y109.822 E0.19159
G1 X179.884 Y113.447 E0.19159
G1 X179.083 Y117.028 E0.19159
G1 X178.059 Y120.552 E0.19159
G1 X176.816 Y124.005 E0.19159
G1 X175.359 Y127.373 E0.19159
G1 X173.693 Y130.643 E0.19159
G1 X171.824 Y133.802 E0.19159
G1 X169.762 Y136.838 E0.19159
G1 X167.512 Y139.737 E0.19159
G1 X165.085 Y142.490 E0.19159
G1 X162.490 Y145.085 E0.19158
G1 X159.737 Y147.512 E0.19159
G1 X156.838 Y149.762 E0.19159
G1 X153.802 Y151.824 E0.19159
G1 X150.643 Y153.693 E0.19159
G1 X147.373 Y155.359 E0.19159
G1 X144.005 Y156.816 E0.19159
G1 X140.552 Y158.059 E0.19159
G1 X137.028 Y159.083 E0.19159
G1 X133.447 Y159.884 E0.19159
G1 X129.822 Y160.458 E0.19159
G1 X126.168 Y160.803 E0.19159
G1 X122.500 Y160.919 E0.19159
G1 X118.832 Y160.803 E0.19159
G1 X115.178 Y160.458 E0.19159
G1 X111.553 Y159.884 E0.19159
G1 X107.972 Y159.083 E0.19159
G1 X104.448 Y158.059 E0.19159
G1 X100.995 Y156.816 E0.19159
G1 X97.627 Y155.359 E0.19159
G1 X94.357 Y153.693 E0.19159
G1 X91.198 Y151.824 E0.19159
G1 X88.162 Y149.762 E0.19159
G1 X85.263 Y147.512 E0.19159
G1 X82.510 Y145.085 E0.19159
G1 X79.915 Y142.490 E0.19158
G1 X77.488 Y139.737 E0.19159
G1 X75.238 Y136.838 E0.19159
G1 X73.176 Y133.802 E0.19159
G1 X71.307 Y130.643 E0.19159
G1 X69.641 Y127.373 E0.19159
G1 X68.184 Y124.005 E0.19159
G1 X66.941 Y120.552 E0.19159
G1 X65.917 Y117.028 E0.19159
G1 X65.116 Y113.447 E0.19159
G1 X64.542 Y109.822 E0.19159
G1 X64.197 Y106.168 E0.19159
G1 X64.081 Y102.500 E0.19159
G1 X64.197 Y98.832 E0.19159
G1 X64.542 Y95.178 E0.19159
G1 X65.116 Y91.553 E0.19159
G1 X65.917 Y87.972 E0.19159
G1 X66.941 Y84.448 E0.19159
G1 X68.184 Y80.995 E0.19159
G1 X69.641 Y77.627 E0.19159
G1 X71.307 Y74.357 E0.19159
G1 X73.176 Y71.198 E0.19159
G1 X75.238 Y68.162 E0.19159
G1 X77.488 Y65.263 E0.19159
G1 X79.915 Y62.510 E0.19159
G1 X82.510 Y59.915 E0.19158
G1 X85.263 Y57.488 E0.19159
G1 X88.162 Y55.238 E0.19159
G1 X91.198 Y53.176 E0.19159
G1 X94.357 Y51.307 E0.19159
G1 X97.627 Y49.641 E0.19159
G1 X100.995 Y48.184 E0.19159
G1 X104.448 Y46.941 E0.19159
G1 X107.972 Y45.917 E0.19159
G1 X111.553 Y45.116 E0.19159
G1 X112.342 Y44.991 E0.04168
G1 X112.285 Y44.633 F7200.000
G1 X115.133 Y44.182 E0.15051 F2100.000
G1 X118.809 Y43.835 E0.19278
G1 X122.500 Y43.719 E0.19278
